( PCB Contour )
( Generated by Rapid-PCB.com )
( Material Size)
( X= 160.000, Y= 100.000, Z= 1.580)
()
G00
G17
G21
G40
G49
G54
G80
G90
G94
G00 F3000 Z3.000
M03 S9000
G00 F3000 X58.417 Y-16.866
G00 F1500 Z0
G01 F600 Z-0.200
G01 F600 X58.300 Y-16.891
G01 F600 X58.190 Y-16.940
G01 F600 X58.097 Y-17.008
G01 F600 X51.123 Y-23.981
G01 F600 X50.974 Y-23.950
G01 F600 X50.741 Y-23.950
G01 F600 X50.513 Y-23.998
G01 F600 X50.300 Y-24.093
G01 F600 X50.112 Y-24.230
G01 F600 X49.956 Y-24.403
G01 F600 X49.840 Y-24.604
G01 F600 X49.768 Y-24.826
G01 F600 X49.743 Y-25.057
G01 F600 X49.768 Y-25.289
G01 F600 X49.840 Y-25.510
G01 F600 X49.956 Y-25.712
G01 F600 X50.112 Y-25.885
G01 F600 X50.300 Y-26.022
G01 F600 X50.513 Y-26.117
G01 F600 X50.741 Y-26.165
G01 F600 X50.974 Y-26.165
G01 F600 X51.201 Y-26.117
G01 F600 X51.414 Y-26.022
G01 F600 X51.602 Y-25.885
G01 F600 X51.758 Y-25.712
G01 F600 X51.875 Y-25.510
G01 F600 X51.947 Y-25.289
G01 F600 X51.971 Y-25.057
G01 F600 X51.947 Y-24.826
G01 F600 X51.935 Y-24.789
G01 F600 X58.716 Y-18.008
G01 F600 X97.608 Y-18.008
G01 F600 X99.578 Y-19.977
G01 F600 X97.916 Y-21.639
G01 F600 X97.728 Y-21.555
G01 F600 X97.521 Y-21.511
G01 F600 X95.633 Y-21.511
G01 F600 X95.426 Y-21.555
G01 F600 X95.233 Y-21.641
G01 F600 X95.062 Y-21.765
G01 F600 X94.920 Y-21.922
G01 F600 X94.814 Y-22.106
G01 F600 X94.749 Y-22.307
G01 F600 X94.727 Y-22.517
G01 F600 X94.749 Y-22.728
G01 F600 X94.814 Y-22.929
G01 F600 X94.920 Y-23.112
G01 F600 X95.062 Y-23.270
G01 F600 X95.233 Y-23.394
G01 F600 X95.426 Y-23.480
G01 F600 X95.633 Y-23.524
G01 F600 X97.521 Y-23.524
G01 F600 X97.728 Y-23.480
G01 F600 X97.921 Y-23.394
G01 F600 X98.093 Y-23.270
G01 F600 X98.234 Y-23.112
G01 F600 X98.340 Y-22.929
G01 F600 X98.386 Y-22.788
G01 F600 X100.780 Y-20.394
G01 F600 X100.852 Y-20.315
G01 F600 X100.912 Y-20.211
G01 F600 X100.949 Y-20.097
G01 F600 X100.961 Y-19.977
G01 F600 X100.949 Y-19.858
G01 F600 X100.912 Y-19.744
G01 F600 X100.852 Y-19.640
G01 F600 X100.780 Y-19.561
G01 F600 X98.228 Y-17.008
G01 F600 X98.134 Y-16.940
G01 F600 X98.025 Y-16.891
G01 F600 X97.907 Y-16.866
G01 F600 X58.417 Y-16.866
G00 F3000 Z3.000
G00 F3000 X95.633 Y-18.971
G00 F1500 Z0
G01 F600 Z-0.200
G01 F600 X95.426 Y-19.015
G01 F600 X95.233 Y-19.101
G01 F600 X95.062 Y-19.225
G01 F600 X94.920 Y-19.382
G01 F600 X94.814 Y-19.566
G01 F600 X94.769 Y-19.706
G01 F600 X86.024 Y-28.451
G01 F600 X85.953 Y-28.530
G01 F600 X85.893 Y-28.634
G01 F600 X85.856 Y-28.748
G01 F600 X85.844 Y-28.858
G01 F600 X85.844 Y-30.455
G01 F600 X85.672 Y-30.580
G01 F600 X85.516 Y-30.753
G01 F600 X85.400 Y-30.954
G01 F600 X85.328 Y-31.176
G01 F600 X85.303 Y-31.407
G01 F600 X85.328 Y-31.639
G01 F600 X85.400 Y-31.860
G01 F600 X85.516 Y-32.062
G01 F600 X85.672 Y-32.235
G01 F600 X85.860 Y-32.372
G01 F600 X86.073 Y-32.467
G01 F600 X86.301 Y-32.515
G01 F600 X86.534 Y-32.515
G01 F600 X86.761 Y-32.467
G01 F600 X86.974 Y-32.372
G01 F600 X87.162 Y-32.235
G01 F600 X87.318 Y-32.062
G01 F600 X87.435 Y-31.860
G01 F600 X87.507 Y-31.639
G01 F600 X87.531 Y-31.407
G01 F600 X87.507 Y-31.176
G01 F600 X87.435 Y-30.954
G01 F600 X87.318 Y-30.753
G01 F600 X87.162 Y-30.580
G01 F600 X86.990 Y-30.455
G01 F600 X86.990 Y-29.104
G01 F600 X95.238 Y-20.856
G01 F600 X95.426 Y-20.940
G01 F600 X95.633 Y-20.984
G01 F600 X97.521 Y-20.984
G01 F600 X97.728 Y-20.940
G01 F600 X97.921 Y-20.854
G01 F600 X98.093 Y-20.730
G01 F600 X98.234 Y-20.572
G01 F600 X98.340 Y-20.389
G01 F600 X98.405 Y-20.188
G01 F600 X98.428 Y-19.977
G01 F600 X98.405 Y-19.767
G01 F600 X98.340 Y-19.566
G01 F600 X98.234 Y-19.382
G01 F600 X98.093 Y-19.225
G01 F600 X97.921 Y-19.101
G01 F600 X97.728 Y-19.015
G01 F600 X97.521 Y-18.971
G01 F600 X95.633 Y-18.971
G00 F3000 Z3.000
G00 F3000 X71.061 Y-23.950
G00 F1500 Z0
G01 F600 Z-0.200
G01 F600 X70.833 Y-23.998
G01 F600 X70.620 Y-24.093
G01 F600 X70.432 Y-24.230
G01 F600 X70.276 Y-24.403
G01 F600 X70.160 Y-24.604
G01 F600 X70.088 Y-24.826
G01 F600 X70.063 Y-25.057
G01 F600 X70.088 Y-25.289
G01 F600 X70.160 Y-25.510
G01 F600 X70.276 Y-25.712
G01 F600 X70.432 Y-25.885
G01 F600 X70.620 Y-26.022
G01 F600 X70.833 Y-26.117
G01 F600 X71.061 Y-26.165
G01 F600 X71.294 Y-26.165
G01 F600 X71.443 Y-26.133
G01 F600 X77.147 Y-31.837
G01 F600 X77.240 Y-31.904
G01 F600 X77.350 Y-31.953
G01 F600 X77.467 Y-31.978
G01 F600 X80.388 Y-31.978
G01 F600 X80.436 Y-32.062
G01 F600 X80.592 Y-32.235
G01 F600 X80.780 Y-32.372
G01 F600 X80.993 Y-32.467
G01 F600 X81.221 Y-32.515
G01 F600 X81.454 Y-32.515
G01 F600 X81.681 Y-32.467
G01 F600 X81.894 Y-32.372
G01 F600 X82.082 Y-32.235
G01 F600 X82.238 Y-32.062
G01 F600 X82.355 Y-31.860
G01 F600 X82.427 Y-31.639
G01 F600 X82.451 Y-31.407
G01 F600 X82.427 Y-31.176
G01 F600 X82.355 Y-30.954
G01 F600 X82.238 Y-30.753
G01 F600 X82.082 Y-30.580
G01 F600 X81.894 Y-30.443
G01 F600 X81.681 Y-30.348
G01 F600 X81.454 Y-30.300
G01 F600 X81.221 Y-30.300
G01 F600 X80.993 Y-30.348
G01 F600 X80.780 Y-30.443
G01 F600 X80.592 Y-30.580
G01 F600 X80.436 Y-30.753
G01 F600 X80.388 Y-30.836
G01 F600 X77.766 Y-30.836
G01 F600 X72.255 Y-25.325
G01 F600 X72.267 Y-25.289
G01 F600 X72.291 Y-25.057
G01 F600 X72.267 Y-24.826
G01 F600 X72.195 Y-24.604
G01 F600 X72.078 Y-24.403
G01 F600 X71.922 Y-24.230
G01 F600 X71.734 Y-24.093
G01 F600 X71.521 Y-23.998
G01 F600 X71.294 Y-23.950
G01 F600 X71.061 Y-23.950
G00 F3000 Z3.000
G00 F3000 X95.633 Y-24.051
G00 F1500 Z0
G01 F600 Z-0.200
G01 F600 X95.426 Y-24.095
G01 F600 X95.233 Y-24.181
G01 F600 X95.062 Y-24.305
G01 F600 X94.920 Y-24.462
G01 F600 X94.814 Y-24.646
G01 F600 X94.749 Y-24.847
G01 F600 X94.727 Y-25.057
G01 F600 X94.749 Y-25.268
G01 F600 X94.814 Y-25.469
G01 F600 X94.920 Y-25.652
G01 F600 X95.062 Y-25.809
G01 F600 X95.233 Y-25.934
G01 F600 X95.426 Y-26.020
G01 F600 X95.633 Y-26.064
G01 F600 X96.004 Y-26.064
G01 F600 X96.004 Y-35.916
G01 F600 X70.018 Y-35.916
G01 F600 X71.416 Y-34.518
G01 F600 X72.899 Y-34.518
G01 F600 X72.909 Y-34.535
G01 F600 X73.048 Y-34.690
G01 F600 X73.217 Y-34.813
G01 F600 X73.408 Y-34.898
G01 F600 X73.613 Y-34.941
G01 F600 X73.822 Y-34.941
G01 F600 X74.026 Y-34.898
G01 F600 X74.217 Y-34.813
G01 F600 X74.386 Y-34.690
G01 F600 X74.526 Y-34.535
G01 F600 X74.630 Y-34.354
G01 F600 X74.695 Y-34.155
G01 F600 X74.717 Y-33.947
G01 F600 X74.695 Y-33.739
G01 F600 X74.630 Y-33.541
G01 F600 X74.526 Y-33.360
G01 F600 X74.386 Y-33.205
G01 F600 X74.217 Y-33.082
G01 F600 X74.026 Y-32.997
G01 F600 X73.822 Y-32.953
G01 F600 X73.613 Y-32.953
G01 F600 X73.408 Y-32.997
G01 F600 X73.217 Y-33.082
G01 F600 X73.048 Y-33.205
G01 F600 X72.909 Y-33.360
G01 F600 X72.899 Y-33.376
G01 F600 X71.117 Y-33.376
G01 F600 X71.000 Y-33.401
G01 F600 X70.890 Y-33.450
G01 F600 X70.797 Y-33.518
G01 F600 X50.866 Y-53.449
G01 F600 X50.849 Y-53.430
G01 F600 X50.658 Y-53.292
G01 F600 X50.443 Y-53.196
G01 F600 X50.213 Y-53.147
G01 F600 X49.977 Y-53.147
G01 F600 X49.747 Y-53.196
G01 F600 X49.532 Y-53.292
G01 F600 X49.341 Y-53.430
G01 F600 X49.184 Y-53.605
G01 F600 X49.066 Y-53.809
G01 F600 X48.993 Y-54.033
G01 F600 X48.969 Y-54.267
G01 F600 X48.993 Y-54.502
G01 F600 X49.066 Y-54.726
G01 F600 X49.184 Y-54.929
G01 F600 X49.341 Y-55.104
G01 F600 X49.532 Y-55.243
G01 F600 X49.747 Y-55.339
G01 F600 X49.977 Y-55.388
G01 F600 X50.213 Y-55.388
G01 F600 X50.284 Y-55.373
G01 F600 X50.284 Y-56.204
G01 F600 X50.182 Y-56.317
G01 F600 X50.095 Y-56.468
G01 F600 X50.041 Y-56.634
G01 F600 X50.023 Y-56.807
G01 F600 X50.041 Y-56.981
G01 F600 X50.095 Y-57.147
G01 F600 X50.182 Y-57.298
G01 F600 X50.284 Y-57.411
G01 F600 X50.284 Y-63.824
G01 F600 X50.182 Y-63.937
G01 F600 X50.095 Y-64.088
G01 F600 X50.041 Y-64.254
G01 F600 X50.023 Y-64.427
G01 F600 X50.041 Y-64.601
G01 F600 X50.095 Y-64.767
G01 F600 X50.182 Y-64.918
G01 F600 X50.284 Y-65.031
G01 F600 X50.284 Y-65.862
G01 F600 X50.213 Y-65.847
G01 F600 X49.977 Y-65.847
G01 F600 X49.747 Y-65.896
G01 F600 X49.532 Y-65.992
G01 F600 X49.341 Y-66.130
G01 F600 X49.184 Y-66.305
G01 F600 X49.066 Y-66.509
G01 F600 X48.993 Y-66.733
G01 F600 X48.969 Y-66.967
G01 F600 X48.993 Y-67.202
G01 F600 X49.066 Y-67.425
G01 F600 X49.184 Y-67.629
G01 F600 X49.341 Y-67.804
G01 F600 X49.532 Y-67.943
G01 F600 X49.747 Y-68.039
G01 F600 X49.977 Y-68.088
G01 F600 X50.213 Y-68.088
G01 F600 X50.443 Y-68.039
G01 F600 X50.658 Y-67.943
G01 F600 X50.849 Y-67.804
G01 F600 X50.866 Y-67.786
G01 F600 X58.097 Y-75.017
G01 F600 X58.190 Y-75.084
G01 F600 X58.300 Y-75.133
G01 F600 X58.417 Y-75.158
G01 F600 X63.617 Y-75.158
G01 F600 X63.735 Y-75.133
G01 F600 X63.844 Y-75.084
G01 F600 X63.938 Y-75.017
G01 F600 X67.606 Y-71.348
G01 F600 X67.958 Y-71.348
G01 F600 X68.271 Y-71.662
G01 F600 X69.003 Y-71.662
G01 F600 X69.317 Y-71.348
G01 F600 X70.498 Y-71.348
G01 F600 X70.811 Y-71.662
G01 F600 X71.543 Y-71.662
G01 F600 X71.857 Y-71.348
G01 F600 X87.747 Y-71.348
G01 F600 X87.865 Y-71.323
G01 F600 X87.974 Y-71.274
G01 F600 X88.068 Y-71.207
G01 F600 X93.160 Y-66.114
G01 F600 X93.232 Y-66.035
G01 F600 X93.291 Y-65.931
G01 F600 X93.329 Y-65.817
G01 F600 X93.340 Y-65.706
G01 F600 X93.340 Y-61.878
G01 F600 X93.329 Y-61.768
G01 F600 X93.291 Y-61.654
G01 F600 X93.232 Y-61.550
G01 F600 X93.160 Y-61.471
G01 F600 X91.877 Y-60.188
G01 F600 X91.784 Y-60.120
G01 F600 X91.675 Y-60.071
G01 F600 X91.557 Y-60.046
G01 F600 X91.177 Y-60.046
G01 F600 X91.128 Y-59.963
G01 F600 X90.972 Y-59.790
G01 F600 X90.784 Y-59.653
G01 F600 X90.571 Y-59.558
G01 F600 X90.344 Y-59.510
G01 F600 X90.111 Y-59.510
G01 F600 X89.883 Y-59.558
G01 F600 X89.670 Y-59.653
G01 F600 X89.482 Y-59.790
G01 F600 X89.326 Y-59.963
G01 F600 X89.278 Y-60.046
G01 F600 X87.926 Y-60.046
G01 F600 X84.558 Y-56.678
G01 F600 X84.639 Y-56.537
G01 F600 X84.693 Y-56.371
G01 F600 X84.711 Y-56.207
G01 F600 X84.711 Y-54.868
G01 F600 X84.693 Y-54.703
G01 F600 X84.639 Y-54.538
G01 F600 X84.552 Y-54.387
G01 F600 X84.435 Y-54.257
G01 F600 X84.294 Y-54.154
G01 F600 X84.135 Y-54.083
G01 F600 X83.964 Y-54.047
G01 F600 X83.790 Y-54.047
G01 F600 X83.619 Y-54.083
G01 F600 X83.460 Y-54.154
G01 F600 X83.319 Y-54.257
G01 F600 X83.202 Y-54.387
G01 F600 X83.115 Y-54.538
G01 F600 X83.061 Y-54.703
G01 F600 X83.044 Y-54.868
G01 F600 X83.044 Y-56.207
G01 F600 X83.061 Y-56.371
G01 F600 X83.115 Y-56.537
G01 F600 X83.202 Y-56.688
G01 F600 X83.304 Y-56.801
G01 F600 X83.304 Y-56.816
G01 F600 X83.316 Y-56.927
G01 F600 X83.353 Y-57.041
G01 F600 X83.413 Y-57.145
G01 F600 X83.484 Y-57.224
G01 F600 X87.307 Y-61.047
G01 F600 X87.400 Y-61.114
G01 F600 X87.510 Y-61.163
G01 F600 X87.627 Y-61.188
G01 F600 X89.278 Y-61.188
G01 F600 X89.326 Y-61.272
G01 F600 X89.482 Y-61.445
G01 F600 X89.670 Y-61.582
G01 F600 X89.883 Y-61.677
G01 F600 X90.111 Y-61.725
G01 F600 X90.344 Y-61.725
G01 F600 X90.571 Y-61.677
G01 F600 X90.784 Y-61.582
G01 F600 X90.972 Y-61.445
G01 F600 X91.128 Y-61.272
G01 F600 X91.177 Y-61.188
G01 F600 X91.258 Y-61.188
G01 F600 X92.194 Y-62.124
G01 F600 X92.194 Y-65.461
G01 F600 X87.448 Y-70.206
G01 F600 X76.368 Y-70.206
G01 F600 X77.357 Y-69.217
G01 F600 X77.423 Y-69.231
G01 F600 X77.632 Y-69.231
G01 F600 X77.836 Y-69.188
G01 F600 X78.027 Y-69.103
G01 F600 X78.196 Y-68.980
G01 F600 X78.336 Y-68.825
G01 F600 X78.345 Y-68.808
G01 F600 X81.789 Y-68.808
G01 F600 X81.799 Y-68.825
G01 F600 X81.938 Y-68.980
G01 F600 X82.107 Y-69.103
G01 F600 X82.298 Y-69.188
G01 F600 X82.503 Y-69.231
G01 F600 X82.712 Y-69.231
G01 F600 X82.916 Y-69.188
G01 F600 X83.107 Y-69.103
G01 F600 X83.276 Y-68.980
G01 F600 X83.416 Y-68.825
G01 F600 X83.520 Y-68.644
G01 F600 X83.585 Y-68.445
G01 F600 X83.607 Y-68.237
G01 F600 X83.585 Y-68.029
G01 F600 X83.520 Y-67.831
G01 F600 X83.416 Y-67.650
G01 F600 X83.276 Y-67.495
G01 F600 X83.107 Y-67.372
G01 F600 X82.916 Y-67.287
G01 F600 X82.712 Y-67.243
G01 F600 X82.503 Y-67.243
G01 F600 X82.298 Y-67.287
G01 F600 X82.107 Y-67.372
G01 F600 X81.938 Y-67.495
G01 F600 X81.799 Y-67.650
G01 F600 X81.789 Y-67.666
G01 F600 X78.345 Y-67.666
G01 F600 X78.336 Y-67.650
G01 F600 X78.196 Y-67.495
G01 F600 X78.027 Y-67.372
G01 F600 X77.836 Y-67.287
G01 F600 X77.632 Y-67.243
G01 F600 X77.423 Y-67.243
G01 F600 X77.218 Y-67.287
G01 F600 X77.027 Y-67.372
G01 F600 X76.858 Y-67.495
G01 F600 X76.719 Y-67.650
G01 F600 X76.614 Y-67.831
G01 F600 X76.550 Y-68.029
G01 F600 X76.528 Y-68.237
G01 F600 X76.546 Y-68.409
G01 F600 X74.748 Y-70.206
G01 F600 X71.857 Y-70.206
G01 F600 X71.543 Y-69.893
G01 F600 X70.811 Y-69.893
G01 F600 X70.498 Y-70.206
G01 F600 X69.317 Y-70.206
G01 F600 X69.003 Y-69.893
G01 F600 X68.271 Y-69.893
G01 F600 X67.958 Y-70.206
G01 F600 X67.307 Y-70.206
G01 F600 X67.190 Y-70.231
G01 F600 X67.080 Y-70.280
G01 F600 X66.987 Y-70.348
G01 F600 X63.318 Y-74.016
G01 F600 X58.716 Y-74.016
G01 F600 X51.430 Y-66.731
G01 F600 X51.430 Y-65.031
G01 F600 X51.532 Y-64.918
G01 F600 X51.619 Y-64.767
G01 F600 X51.673 Y-64.601
G01 F600 X51.692 Y-64.427
G01 F600 X51.673 Y-64.254
G01 F600 X51.619 Y-64.088
G01 F600 X51.532 Y-63.937
G01 F600 X51.430 Y-63.824
G01 F600 X51.430 Y-57.411
G01 F600 X51.532 Y-57.298
G01 F600 X51.619 Y-57.147
G01 F600 X51.673 Y-56.981
G01 F600 X51.692 Y-56.807
G01 F600 X51.673 Y-56.634
G01 F600 X51.619 Y-56.468
G01 F600 X51.532 Y-56.317
G01 F600 X51.430 Y-56.204
G01 F600 X51.430 Y-54.504
G01 F600 X62.526 Y-43.408
G01 F600 X77.979 Y-43.408
G01 F600 X77.989 Y-43.425
G01 F600 X78.129 Y-43.581
G01 F600 X78.224 Y-43.648
G01 F600 X78.224 Y-46.653
G01 F600 X78.122 Y-46.767
G01 F600 X78.035 Y-46.918
G01 F600 X77.981 Y-47.083
G01 F600 X77.964 Y-47.248
G01 F600 X77.964 Y-48.587
G01 F600 X77.981 Y-48.751
G01 F600 X78.035 Y-48.917
G01 F600 X78.122 Y-49.068
G01 F600 X78.239 Y-49.198
G01 F600 X78.380 Y-49.300
G01 F600 X78.539 Y-49.371
G01 F600 X78.710 Y-49.407
G01 F600 X78.884 Y-49.407
G01 F600 X79.055 Y-49.371
G01 F600 X79.214 Y-49.300
G01 F600 X79.355 Y-49.198
G01 F600 X79.472 Y-49.068
G01 F600 X79.559 Y-48.917
G01 F600 X79.613 Y-48.751
G01 F600 X79.631 Y-48.587
G01 F600 X79.631 Y-47.248
G01 F600 X79.613 Y-47.083
G01 F600 X79.559 Y-46.918
G01 F600 X79.472 Y-46.767
G01 F600 X79.371 Y-46.654
G01 F600 X79.383 Y-43.641
G01 F600 X79.466 Y-43.580
G01 F600 X79.606 Y-43.425
G01 F600 X79.710 Y-43.244
G01 F600 X79.775 Y-43.045
G01 F600 X79.797 Y-42.837
G01 F600 X79.775 Y-42.630
G01 F600 X79.710 Y-42.431
G01 F600 X79.606 Y-42.250
G01 F600 X79.466 Y-42.095
G01 F600 X79.297 Y-41.972
G01 F600 X79.106 Y-41.887
G01 F600 X78.902 Y-41.843
G01 F600 X78.693 Y-41.843
G01 F600 X78.488 Y-41.887
G01 F600 X78.297 Y-41.972
G01 F600 X78.128 Y-42.095
G01 F600 X77.989 Y-42.250
G01 F600 X77.979 Y-42.266
G01 F600 X63.668 Y-42.266
G01 F600 X68.876 Y-37.058
G01 F600 X96.004 Y-37.058
G01 F600 X96.004 Y-37.766
G01 F600 X96.016 Y-37.877
G01 F600 X96.053 Y-37.991
G01 F600 X96.113 Y-38.095
G01 F600 X96.184 Y-38.174
G01 F600 X97.274 Y-39.264
G01 F600 X97.274 Y-39.345
G01 F600 X97.102 Y-39.470
G01 F600 X96.946 Y-39.643
G01 F600 X96.830 Y-39.844
G01 F600 X96.758 Y-40.066
G01 F600 X96.733 Y-40.297
G01 F600 X96.758 Y-40.529
G01 F600 X96.830 Y-40.750
G01 F600 X96.946 Y-40.952
G01 F600 X97.102 Y-41.125
G01 F600 X97.290 Y-41.262
G01 F600 X97.503 Y-41.357
G01 F600 X97.731 Y-41.405
G01 F600 X97.964 Y-41.405
G01 F600 X98.191 Y-41.357
G01 F600 X98.404 Y-41.262
G01 F600 X98.592 Y-41.125
G01 F600 X98.748 Y-40.952
G01 F600 X98.865 Y-40.750
G01 F600 X98.937 Y-40.529
G01 F600 X98.961 Y-40.297
G01 F600 X98.937 Y-40.066
G01 F600 X98.865 Y-39.844
G01 F600 X98.748 Y-39.643
G01 F600 X98.592 Y-39.470
G01 F600 X98.420 Y-39.345
G01 F600 X98.420 Y-39.018
G01 F600 X98.409 Y-38.908
G01 F600 X98.372 Y-38.794
G01 F600 X98.312 Y-38.690
G01 F600 X98.240 Y-38.611
G01 F600 X97.150 Y-37.521
G01 F600 X97.150 Y-26.064
G01 F600 X97.521 Y-26.064
G01 F600 X97.728 Y-26.020
G01 F600 X97.921 Y-25.934
G01 F600 X98.093 Y-25.809
G01 F600 X98.234 Y-25.652
G01 F600 X98.340 Y-25.469
G01 F600 X98.405 Y-25.268
G01 F600 X98.428 Y-25.057
G01 F600 X98.405 Y-24.847
G01 F600 X98.340 Y-24.646
G01 F600 X98.234 Y-24.462
G01 F600 X98.093 Y-24.305
G01 F600 X97.921 Y-24.181
G01 F600 X97.728 Y-24.095
G01 F600 X97.521 Y-24.051
G01 F600 X95.633 Y-24.051
G00 F3000 Z3.000
G00 F3000 X91.381 Y-29.030
G00 F1500 Z0
G01 F600 Z-0.200
G01 F600 X91.153 Y-29.078
G01 F600 X90.940 Y-29.173
G01 F600 X90.752 Y-29.310
G01 F600 X90.596 Y-29.483
G01 F600 X90.480 Y-29.684
G01 F600 X90.408 Y-29.906
G01 F600 X90.383 Y-30.137
G01 F600 X90.408 Y-30.369
G01 F600 X90.480 Y-30.590
G01 F600 X90.596 Y-30.792
G01 F600 X90.752 Y-30.965
G01 F600 X90.924 Y-31.090
G01 F600 X90.924 Y-32.995
G01 F600 X90.752 Y-33.120
G01 F600 X90.596 Y-33.293
G01 F600 X90.480 Y-33.494
G01 F600 X90.408 Y-33.716
G01 F600 X90.383 Y-33.947
G01 F600 X90.408 Y-34.179
G01 F600 X90.480 Y-34.400
G01 F600 X90.596 Y-34.602
G01 F600 X90.752 Y-34.775
G01 F600 X90.940 Y-34.912
G01 F600 X91.153 Y-35.007
G01 F600 X91.381 Y-35.055
G01 F600 X91.614 Y-35.055
G01 F600 X91.841 Y-35.007
G01 F600 X92.054 Y-34.912
G01 F600 X92.242 Y-34.775
G01 F600 X92.398 Y-34.602
G01 F600 X92.515 Y-34.400
G01 F600 X92.587 Y-34.179
G01 F600 X92.611 Y-33.947
G01 F600 X92.587 Y-33.716
G01 F600 X92.515 Y-33.494
G01 F600 X92.398 Y-33.293
G01 F600 X92.242 Y-33.120
G01 F600 X92.070 Y-32.995
G01 F600 X92.070 Y-31.090
G01 F600 X92.242 Y-30.965
G01 F600 X92.398 Y-30.792
G01 F600 X92.515 Y-30.590
G01 F600 X92.587 Y-30.369
G01 F600 X92.611 Y-30.137
G01 F600 X92.587 Y-29.906
G01 F600 X92.515 Y-29.684
G01 F600 X92.398 Y-29.483
G01 F600 X92.242 Y-29.310
G01 F600 X92.054 Y-29.173
G01 F600 X91.841 Y-29.078
G01 F600 X91.614 Y-29.030
G01 F600 X91.381 Y-29.030
G00 F3000 Z3.000
G00 F3000 X104.081 Y-29.030
G00 F1500 Z0
G01 F600 Z-0.200
G01 F600 X103.853 Y-29.078
G01 F600 X103.640 Y-29.173
G01 F600 X103.452 Y-29.310
G01 F600 X103.296 Y-29.483
G01 F600 X103.180 Y-29.684
G01 F600 X103.108 Y-29.906
G01 F600 X103.083 Y-30.137
G01 F600 X103.108 Y-30.369
G01 F600 X103.180 Y-30.590
G01 F600 X103.296 Y-30.792
G01 F600 X103.452 Y-30.965
G01 F600 X103.640 Y-31.102
G01 F600 X103.853 Y-31.197
G01 F600 X104.081 Y-31.245
G01 F600 X104.314 Y-31.245
G01 F600 X104.463 Y-31.213
G01 F600 X104.894 Y-31.644
G01 F600 X104.894 Y-32.995
G01 F600 X104.722 Y-33.120
G01 F600 X104.566 Y-33.293
G01 F600 X104.450 Y-33.494
G01 F600 X104.378 Y-33.716
G01 F600 X104.353 Y-33.947
G01 F600 X104.378 Y-34.179
G01 F600 X104.450 Y-34.400
G01 F600 X104.566 Y-34.602
G01 F600 X104.722 Y-34.775
G01 F600 X104.910 Y-34.912
G01 F600 X105.123 Y-35.007
G01 F600 X105.351 Y-35.055
G01 F600 X105.584 Y-35.055
G01 F600 X105.811 Y-35.007
G01 F600 X106.024 Y-34.912
G01 F600 X106.212 Y-34.775
G01 F600 X106.368 Y-34.602
G01 F600 X106.485 Y-34.400
G01 F600 X106.557 Y-34.179
G01 F600 X106.581 Y-33.947
G01 F600 X106.557 Y-33.716
G01 F600 X106.485 Y-33.494
G01 F600 X106.368 Y-33.293
G01 F600 X106.212 Y-33.120
G01 F600 X106.040 Y-32.995
G01 F600 X106.040 Y-31.398
G01 F600 X106.029 Y-31.288
G01 F600 X105.992 Y-31.174
G01 F600 X105.931 Y-31.070
G01 F600 X105.860 Y-30.991
G01 F600 X105.275 Y-30.405
G01 F600 X105.287 Y-30.369
G01 F600 X105.311 Y-30.137
G01 F600 X105.287 Y-29.906
G01 F600 X105.215 Y-29.684
G01 F600 X105.098 Y-29.483
G01 F600 X104.942 Y-29.310
G01 F600 X104.754 Y-29.173
G01 F600 X104.541 Y-29.078
G01 F600 X104.314 Y-29.030
G01 F600 X104.081 Y-29.030
G00 F3000 Z3.000
G00 F3000 X99.001 Y-32.840
G00 F1500 Z0
G01 F600 Z-0.200
G01 F600 X98.773 Y-32.888
G01 F600 X98.560 Y-32.983
G01 F600 X98.372 Y-33.120
G01 F600 X98.216 Y-33.293
G01 F600 X98.100 Y-33.494
G01 F600 X98.028 Y-33.716
G01 F600 X98.003 Y-33.947
G01 F600 X98.028 Y-34.179
G01 F600 X98.100 Y-34.400
G01 F600 X98.216 Y-34.602
G01 F600 X98.372 Y-34.775
G01 F600 X98.560 Y-34.912
G01 F600 X98.773 Y-35.007
G01 F600 X99.001 Y-35.055
G01 F600 X99.234 Y-35.055
G01 F600 X99.383 Y-35.023
G01 F600 X99.814 Y-35.454
G01 F600 X99.814 Y-39.345
G01 F600 X99.642 Y-39.470
G01 F600 X99.486 Y-39.643
G01 F600 X99.370 Y-39.844
G01 F600 X99.298 Y-40.066
G01 F600 X99.273 Y-40.297
G01 F600 X99.298 Y-40.529
G01 F600 X99.370 Y-40.750
G01 F600 X99.486 Y-40.952
G01 F600 X99.642 Y-41.125
G01 F600 X99.814 Y-41.250
G01 F600 X99.814 Y-42.846
G01 F600 X99.826 Y-42.957
G01 F600 X99.863 Y-43.071
G01 F600 X99.923 Y-43.175
G01 F600 X99.994 Y-43.254
G01 F600 X103.624 Y-46.884
G01 F600 X103.624 Y-48.951
G01 F600 X102.688 Y-49.886
G01 F600 X82.846 Y-49.886
G01 F600 X82.018 Y-49.058
G01 F600 X82.099 Y-48.917
G01 F600 X82.153 Y-48.751
G01 F600 X82.171 Y-48.587
G01 F600 X82.171 Y-47.248
G01 F600 X82.153 Y-47.083
G01 F600 X82.099 Y-46.918
G01 F600 X82.012 Y-46.767
G01 F600 X81.910 Y-46.654
G01 F600 X81.923 Y-43.641
G01 F600 X82.006 Y-43.580
G01 F600 X82.146 Y-43.425
G01 F600 X82.250 Y-43.244
G01 F600 X82.315 Y-43.045
G01 F600 X82.337 Y-42.837
G01 F600 X82.315 Y-42.630
G01 F600 X82.250 Y-42.431
G01 F600 X82.146 Y-42.250
G01 F600 X82.005 Y-42.094
G01 F600 X81.910 Y-42.027
G01 F600 X81.910 Y-39.980
G01 F600 X82.082 Y-39.855
G01 F600 X82.238 Y-39.682
G01 F600 X82.355 Y-39.480
G01 F600 X82.427 Y-39.259
G01 F600 X82.451 Y-39.027
G01 F600 X82.427 Y-38.796
G01 F600 X82.355 Y-38.574
G01 F600 X82.238 Y-38.373
G01 F600 X82.082 Y-38.200
G01 F600 X81.894 Y-38.063
G01 F600 X81.681 Y-37.968
G01 F600 X81.454 Y-37.920
G01 F600 X81.221 Y-37.920
G01 F600 X80.993 Y-37.968
G01 F600 X80.780 Y-38.063
G01 F600 X80.592 Y-38.200
G01 F600 X80.436 Y-38.373
G01 F600 X80.388 Y-38.456
G01 F600 X74.716 Y-38.456
G01 F600 X74.716 Y-38.029
G01 F600 X72.719 Y-38.029
G01 F600 X72.719 Y-40.026
G01 F600 X74.716 Y-40.026
G01 F600 X74.716 Y-39.598
G01 F600 X80.388 Y-39.598
G01 F600 X80.436 Y-39.682
G01 F600 X80.592 Y-39.855
G01 F600 X80.764 Y-39.980
G01 F600 X80.752 Y-42.034
G01 F600 X80.668 Y-42.095
G01 F600 X80.529 Y-42.250
G01 F600 X80.424 Y-42.431
G01 F600 X80.359 Y-42.630
G01 F600 X80.338 Y-42.837
G01 F600 X80.359 Y-43.045
G01 F600 X80.424 Y-43.244
G01 F600 X80.529 Y-43.425
G01 F600 X80.669 Y-43.581
G01 F600 X80.764 Y-43.648
G01 F600 X80.764 Y-46.653
G01 F600 X80.662 Y-46.767
G01 F600 X80.575 Y-46.918
G01 F600 X80.521 Y-47.083
G01 F600 X80.504 Y-47.248
G01 F600 X80.504 Y-48.587
G01 F600 X80.521 Y-48.751
G01 F600 X80.575 Y-48.917
G01 F600 X80.657 Y-49.058
G01 F600 X77.288 Y-52.426
G01 F600 X66.037 Y-52.426
G01 F600 X65.920 Y-52.451
G01 F600 X65.810 Y-52.500
G01 F600 X65.717 Y-52.568
G01 F600 X62.287 Y-55.998
G01 F600 X60.614 Y-54.324
G01 F600 X60.620 Y-54.267
G01 F600 X60.595 Y-54.033
G01 F600 X60.522 Y-53.809
G01 F600 X60.405 Y-53.605
G01 F600 X60.247 Y-53.430
G01 F600 X60.056 Y-53.292
G01 F600 X59.841 Y-53.196
G01 F600 X59.611 Y-53.147
G01 F600 X59.375 Y-53.147
G01 F600 X59.145 Y-53.196
G01 F600 X58.930 Y-53.292
G01 F600 X58.739 Y-53.430
G01 F600 X58.582 Y-53.605
G01 F600 X58.464 Y-53.809
G01 F600 X58.391 Y-54.033
G01 F600 X58.367 Y-54.267
G01 F600 X58.391 Y-54.502
G01 F600 X58.464 Y-54.726
G01 F600 X58.470 Y-54.735
G01 F600 X58.084 Y-55.121
G01 F600 X58.013 Y-55.200
G01 F600 X57.953 Y-55.304
G01 F600 X57.916 Y-55.418
G01 F600 X57.904 Y-55.528
G01 F600 X57.904 Y-56.204
G01 F600 X57.802 Y-56.317
G01 F600 X57.715 Y-56.468
G01 F600 X57.661 Y-56.634
G01 F600 X57.643 Y-56.807
G01 F600 X57.661 Y-56.981
G01 F600 X57.715 Y-57.147
G01 F600 X57.802 Y-57.298
G01 F600 X57.919 Y-57.427
G01 F600 X58.060 Y-57.530
G01 F600 X58.219 Y-57.601
G01 F600 X58.390 Y-57.637
G01 F600 X58.564 Y-57.637
G01 F600 X58.735 Y-57.601
G01 F600 X58.894 Y-57.530
G01 F600 X59.035 Y-57.427
G01 F600 X59.152 Y-57.298
G01 F600 X59.239 Y-57.147
G01 F600 X59.293 Y-56.981
G01 F600 X59.312 Y-56.807
G01 F600 X59.293 Y-56.634
G01 F600 X59.239 Y-56.468
G01 F600 X59.152 Y-56.317
G01 F600 X59.050 Y-56.204
G01 F600 X59.050 Y-55.777
G01 F600 X59.462 Y-55.388
G01 F600 X59.611 Y-55.388
G01 F600 X59.841 Y-55.339
G01 F600 X59.957 Y-55.287
G01 F600 X61.897 Y-57.227
G01 F600 X65.717 Y-61.047
G01 F600 X65.810 Y-61.114
G01 F600 X65.920 Y-61.163
G01 F600 X66.037 Y-61.188
G01 F600 X67.958 Y-61.188
G01 F600 X68.271 Y-61.502
G01 F600 X69.003 Y-61.502
G01 F600 X69.317 Y-61.188
G01 F600 X70.498 Y-61.188
G01 F600 X70.811 Y-61.502
G01 F600 X71.543 Y-61.502
G01 F600 X72.061 Y-60.983
G01 F600 X72.061 Y-60.251
G01 F600 X71.543 Y-59.733
G01 F600 X70.811 Y-59.733
G01 F600 X70.498 Y-60.046
G01 F600 X69.317 Y-60.046
G01 F600 X69.003 Y-59.733
G01 F600 X68.271 Y-59.733
G01 F600 X67.958 Y-60.046
G01 F600 X66.336 Y-60.046
G01 F600 X63.097 Y-56.807
G01 F600 X66.336 Y-53.568
G01 F600 X77.587 Y-53.568
G01 F600 X77.705 Y-53.543
G01 F600 X77.814 Y-53.494
G01 F600 X77.907 Y-53.427
G01 F600 X81.337 Y-49.997
G01 F600 X82.227 Y-50.887
G01 F600 X82.320 Y-50.954
G01 F600 X82.430 Y-51.003
G01 F600 X82.547 Y-51.028
G01 F600 X102.987 Y-51.028
G01 F600 X103.105 Y-51.003
G01 F600 X103.214 Y-50.954
G01 F600 X103.308 Y-50.887
G01 F600 X104.590 Y-49.604
G01 F600 X104.662 Y-49.525
G01 F600 X104.722 Y-49.421
G01 F600 X104.759 Y-49.307
G01 F600 X104.770 Y-49.196
G01 F600 X104.770 Y-46.638
G01 F600 X104.759 Y-46.528
G01 F600 X104.722 Y-46.414
G01 F600 X104.662 Y-46.310
G01 F600 X104.590 Y-46.231
G01 F600 X100.960 Y-42.601
G01 F600 X100.960 Y-41.250
G01 F600 X101.132 Y-41.125
G01 F600 X101.288 Y-40.952
G01 F600 X101.405 Y-40.750
G01 F600 X101.477 Y-40.529
G01 F600 X101.501 Y-40.297
G01 F600 X101.477 Y-40.066
G01 F600 X101.405 Y-39.844
G01 F600 X101.288 Y-39.643
G01 F600 X101.132 Y-39.470
G01 F600 X100.960 Y-39.345
G01 F600 X100.960 Y-35.208
G01 F600 X100.949 Y-35.098
G01 F600 X100.912 Y-34.984
G01 F600 X100.852 Y-34.880
G01 F600 X100.780 Y-34.801
G01 F600 X100.195 Y-34.215
G01 F600 X100.207 Y-34.179
G01 F600 X100.231 Y-33.947
G01 F600 X100.207 Y-33.716
G01 F600 X100.135 Y-33.494
G01 F600 X100.018 Y-33.293
G01 F600 X99.862 Y-33.120
G01 F600 X99.674 Y-32.983
G01 F600 X99.461 Y-32.888
G01 F600 X99.234 Y-32.840
G01 F600 X99.001 Y-32.840
G00 F3000 Z3.000
G00 F3000 X102.811 Y-32.840
G00 F1500 Z0
G01 F600 Z-0.200
G01 F600 X102.583 Y-32.888
G01 F600 X102.370 Y-32.983
G01 F600 X102.182 Y-33.120
G01 F600 X102.026 Y-33.293
G01 F600 X101.910 Y-33.494
G01 F600 X101.838 Y-33.716
G01 F600 X101.813 Y-33.947
G01 F600 X101.838 Y-34.179
G01 F600 X101.910 Y-34.400
G01 F600 X102.026 Y-34.602
G01 F600 X102.182 Y-34.775
G01 F600 X102.354 Y-34.900
G01 F600 X102.354 Y-39.345
G01 F600 X102.182 Y-39.470
G01 F600 X102.026 Y-39.643
G01 F600 X101.910 Y-39.844
G01 F600 X101.838 Y-40.066
G01 F600 X101.813 Y-40.297
G01 F600 X101.838 Y-40.529
G01 F600 X101.910 Y-40.750
G01 F600 X102.026 Y-40.952
G01 F600 X102.182 Y-41.125
G01 F600 X102.370 Y-41.262
G01 F600 X102.583 Y-41.357
G01 F600 X102.811 Y-41.405
G01 F600 X103.044 Y-41.405
G01 F600 X103.193 Y-41.373
G01 F600 X106.164 Y-44.344
G01 F600 X106.164 Y-50.221
G01 F600 X102.165 Y-54.220
G01 F600 X102.074 Y-54.154
G01 F600 X101.915 Y-54.083
G01 F600 X101.744 Y-54.047
G01 F600 X101.570 Y-54.047
G01 F600 X101.399 Y-54.083
G01 F600 X101.240 Y-54.154
G01 F600 X101.099 Y-54.257
G01 F600 X100.982 Y-54.387
G01 F600 X100.895 Y-54.538
G01 F600 X100.841 Y-54.703
G01 F600 X100.824 Y-54.868
G01 F600 X100.824 Y-56.207
G01 F600 X100.841 Y-56.371
G01 F600 X100.895 Y-56.537
G01 F600 X100.982 Y-56.688
G01 F600 X101.084 Y-56.801
G01 F600 X101.084 Y-69.271
G01 F600 X97.608 Y-72.746
G01 F600 X71.857 Y-72.746
G01 F600 X71.543 Y-72.433
G01 F600 X70.811 Y-72.433
G01 F600 X70.498 Y-72.746
G01 F600 X69.317 Y-72.746
G01 F600 X69.003 Y-72.433
G01 F600 X68.271 Y-72.433
G01 F600 X67.753 Y-72.951
G01 F600 X67.753 Y-73.684
G01 F600 X68.271 Y-74.202
G01 F600 X69.003 Y-74.202
G01 F600 X69.317 Y-73.888
G01 F600 X70.498 Y-73.888
G01 F600 X70.811 Y-74.202
G01 F600 X71.543 Y-74.202
G01 F600 X71.857 Y-73.888
G01 F600 X97.907 Y-73.888
G01 F600 X98.025 Y-73.863
G01 F600 X98.134 Y-73.814
G01 F600 X98.228 Y-73.747
G01 F600 X102.050 Y-69.924
G01 F600 X102.122 Y-69.845
G01 F600 X102.181 Y-69.741
G01 F600 X102.219 Y-69.627
G01 F600 X102.230 Y-69.516
G01 F600 X102.230 Y-56.801
G01 F600 X102.332 Y-56.688
G01 F600 X102.419 Y-56.537
G01 F600 X102.473 Y-56.371
G01 F600 X102.491 Y-56.207
G01 F600 X102.491 Y-55.514
G01 F600 X107.130 Y-50.874
G01 F600 X107.202 Y-50.795
G01 F600 X107.261 Y-50.691
G01 F600 X107.299 Y-50.577
G01 F600 X107.310 Y-50.466
G01 F600 X107.310 Y-44.098
G01 F600 X107.299 Y-43.988
G01 F600 X107.261 Y-43.874
G01 F600 X107.202 Y-43.770
G01 F600 X107.130 Y-43.691
G01 F600 X104.005 Y-40.565
G01 F600 X104.017 Y-40.529
G01 F600 X104.041 Y-40.297
G01 F600 X104.017 Y-40.066
G01 F600 X103.945 Y-39.844
G01 F600 X103.828 Y-39.643
G01 F600 X103.672 Y-39.470
G01 F600 X103.500 Y-39.345
G01 F600 X103.500 Y-34.900
G01 F600 X103.672 Y-34.775
G01 F600 X103.828 Y-34.602
G01 F600 X103.945 Y-34.400
G01 F600 X104.017 Y-34.179
G01 F600 X104.041 Y-33.947
G01 F600 X104.017 Y-33.716
G01 F600 X103.945 Y-33.494
G01 F600 X103.828 Y-33.293
G01 F600 X103.672 Y-33.120
G01 F600 X103.484 Y-32.983
G01 F600 X103.271 Y-32.888
G01 F600 X103.044 Y-32.840
G01 F600 X102.811 Y-32.840
G00 F3000 Z3.000
G00 F3000 X89.114 Y-39.184
G00 F1500 Z0
G01 F600 Z-0.200
G01 F600 X89.114 Y-41.410
G01 F600 X91.340 Y-41.410
G01 F600 X91.340 Y-39.184
G01 F600 X89.114 Y-39.184
G00 F3000 Z3.000
G00 F3000 X95.191 Y-39.190
G00 F1500 Z0
G01 F600 Z-0.200
G01 F600 X94.963 Y-39.238
G01 F600 X94.750 Y-39.333
G01 F600 X94.562 Y-39.470
G01 F600 X94.406 Y-39.643
G01 F600 X94.290 Y-39.844
G01 F600 X94.218 Y-40.066
G01 F600 X94.193 Y-40.297
G01 F600 X94.218 Y-40.529
G01 F600 X94.290 Y-40.750
G01 F600 X94.406 Y-40.952
G01 F600 X94.562 Y-41.125
G01 F600 X94.734 Y-41.250
G01 F600 X94.734 Y-41.576
G01 F600 X94.746 Y-41.687
G01 F600 X94.783 Y-41.801
G01 F600 X94.843 Y-41.905
G01 F600 X94.914 Y-41.984
G01 F600 X96.197 Y-43.267
G01 F600 X96.290 Y-43.334
G01 F600 X96.400 Y-43.383
G01 F600 X96.517 Y-43.408
G01 F600 X97.608 Y-43.408
G01 F600 X100.977 Y-46.776
G01 F600 X100.895 Y-46.918
G01 F600 X100.841 Y-47.083
G01 F600 X100.824 Y-47.248
G01 F600 X100.824 Y-48.587
G01 F600 X100.841 Y-48.751
G01 F600 X100.895 Y-48.917
G01 F600 X100.982 Y-49.068
G01 F600 X101.099 Y-49.198
G01 F600 X101.240 Y-49.300
G01 F600 X101.399 Y-49.371
G01 F600 X101.570 Y-49.407
G01 F600 X101.744 Y-49.407
G01 F600 X101.915 Y-49.371
G01 F600 X102.074 Y-49.300
G01 F600 X102.215 Y-49.198
G01 F600 X102.332 Y-49.068
G01 F600 X102.419 Y-48.917
G01 F600 X102.473 Y-48.751
G01 F600 X102.491 Y-48.587
G01 F600 X102.491 Y-47.248
G01 F600 X102.473 Y-47.083
G01 F600 X102.419 Y-46.918
G01 F600 X102.332 Y-46.767
G01 F600 X102.230 Y-46.653
G01 F600 X102.230 Y-46.638
G01 F600 X102.219 Y-46.528
G01 F600 X102.181 Y-46.414
G01 F600 X102.122 Y-46.310
G01 F600 X102.050 Y-46.231
G01 F600 X98.228 Y-42.408
G01 F600 X98.134 Y-42.340
G01 F600 X98.025 Y-42.291
G01 F600 X97.907 Y-42.266
G01 F600 X96.816 Y-42.266
G01 F600 X95.880 Y-41.331
G01 F600 X95.880 Y-41.250
G01 F600 X96.052 Y-41.125
G01 F600 X96.208 Y-40.952
G01 F600 X96.325 Y-40.750
G01 F600 X96.397 Y-40.529
G01 F600 X96.421 Y-40.297
G01 F600 X96.397 Y-40.066
G01 F600 X96.325 Y-39.844
G01 F600 X96.208 Y-39.643
G01 F600 X96.052 Y-39.470
G01 F600 X95.864 Y-39.333
G01 F600 X95.651 Y-39.238
G01 F600 X95.424 Y-39.190
G01 F600 X95.191 Y-39.190
G00 F3000 Z3.000
G00 F3000 X92.651 Y-39.190
G00 F1500 Z0
G01 F600 Z-0.200
G01 F600 X92.423 Y-39.238
G01 F600 X92.210 Y-39.333
G01 F600 X92.022 Y-39.470
G01 F600 X91.866 Y-39.643
G01 F600 X91.750 Y-39.844
G01 F600 X91.678 Y-40.066
G01 F600 X91.653 Y-40.297
G01 F600 X91.678 Y-40.529
G01 F600 X91.750 Y-40.750
G01 F600 X91.866 Y-40.952
G01 F600 X92.022 Y-41.125
G01 F600 X92.194 Y-41.250
G01 F600 X92.194 Y-41.576
G01 F600 X92.206 Y-41.687
G01 F600 X92.243 Y-41.801
G01 F600 X92.303 Y-41.905
G01 F600 X92.374 Y-41.984
G01 F600 X96.197 Y-45.807
G01 F600 X96.290 Y-45.874
G01 F600 X96.400 Y-45.923
G01 F600 X96.517 Y-45.948
G01 F600 X97.608 Y-45.948
G01 F600 X98.437 Y-46.776
G01 F600 X98.355 Y-46.918
G01 F600 X98.301 Y-47.083
G01 F600 X98.284 Y-47.248
G01 F600 X98.284 Y-48.587
G01 F600 X98.301 Y-48.751
G01 F600 X98.355 Y-48.917
G01 F600 X98.442 Y-49.068
G01 F600 X98.559 Y-49.198
G01 F600 X98.700 Y-49.300
G01 F600 X98.859 Y-49.371
G01 F600 X99.030 Y-49.407
G01 F600 X99.204 Y-49.407
G01 F600 X99.375 Y-49.371
G01 F600 X99.534 Y-49.300
G01 F600 X99.675 Y-49.198
G01 F600 X99.792 Y-49.068
G01 F600 X99.879 Y-48.917
G01 F600 X99.933 Y-48.751
G01 F600 X99.951 Y-48.587
G01 F600 X99.951 Y-47.248
G01 F600 X99.933 Y-47.083
G01 F600 X99.879 Y-46.918
G01 F600 X99.792 Y-46.767
G01 F600 X99.690 Y-46.653
G01 F600 X99.690 Y-46.638
G01 F600 X99.679 Y-46.528
G01 F600 X99.642 Y-46.414
G01 F600 X99.582 Y-46.310
G01 F600 X99.510 Y-46.231
G01 F600 X98.228 Y-44.948
G01 F600 X98.134 Y-44.880
G01 F600 X98.025 Y-44.831
G01 F600 X97.907 Y-44.806
G01 F600 X96.816 Y-44.806
G01 F600 X93.340 Y-41.331
G01 F600 X93.340 Y-41.250
G01 F600 X93.512 Y-41.125
G01 F600 X93.668 Y-40.952
G01 F600 X93.785 Y-40.750
G01 F600 X93.857 Y-40.529
G01 F600 X93.881 Y-40.297
G01 F600 X93.857 Y-40.066
G01 F600 X93.785 Y-39.844
G01 F600 X93.668 Y-39.643
G01 F600 X93.512 Y-39.470
G01 F600 X93.324 Y-39.333
G01 F600 X93.111 Y-39.238
G01 F600 X92.884 Y-39.190
G01 F600 X92.651 Y-39.190
G00 F3000 Z3.000
G00 F3000 X86.301 Y-40.460
G00 F1500 Z0
G01 F600 Z-0.200
G01 F600 X86.073 Y-40.508
G01 F600 X85.860 Y-40.603
G01 F600 X85.672 Y-40.740
G01 F600 X85.516 Y-40.913
G01 F600 X85.400 Y-41.114
G01 F600 X85.328 Y-41.336
G01 F600 X85.303 Y-41.567
G01 F600 X85.328 Y-41.799
G01 F600 X85.400 Y-42.020
G01 F600 X85.516 Y-42.222
G01 F600 X85.672 Y-42.395
G01 F600 X85.860 Y-42.532
G01 F600 X86.073 Y-42.627
G01 F600 X86.301 Y-42.675
G01 F600 X86.534 Y-42.675
G01 F600 X86.683 Y-42.643
G01 F600 X88.384 Y-44.344
G01 F600 X88.384 Y-46.653
G01 F600 X88.282 Y-46.767
G01 F600 X88.195 Y-46.918
G01 F600 X88.141 Y-47.083
G01 F600 X88.124 Y-47.248
G01 F600 X88.124 Y-48.587
G01 F600 X88.141 Y-48.751
G01 F600 X88.195 Y-48.917
G01 F600 X88.282 Y-49.068
G01 F600 X88.399 Y-49.198
G01 F600 X88.540 Y-49.300
G01 F600 X88.699 Y-49.371
G01 F600 X88.870 Y-49.407
G01 F600 X89.044 Y-49.407
G01 F600 X89.215 Y-49.371
G01 F600 X89.374 Y-49.300
G01 F600 X89.515 Y-49.198
G01 F600 X89.632 Y-49.068
G01 F600 X89.719 Y-48.917
G01 F600 X89.773 Y-48.751
G01 F600 X89.791 Y-48.587
G01 F600 X89.791 Y-47.248
G01 F600 X89.773 Y-47.083
G01 F600 X89.719 Y-46.918
G01 F600 X89.632 Y-46.767
G01 F600 X89.530 Y-46.653
G01 F600 X89.530 Y-44.098
G01 F600 X89.519 Y-43.988
G01 F600 X89.482 Y-43.874
G01 F600 X89.422 Y-43.770
G01 F600 X89.350 Y-43.691
G01 F600 X87.495 Y-41.835
G01 F600 X87.507 Y-41.799
G01 F600 X87.531 Y-41.567
G01 F600 X87.507 Y-41.336
G01 F600 X87.435 Y-41.114
G01 F600 X87.318 Y-40.913
G01 F600 X87.162 Y-40.740
G01 F600 X86.974 Y-40.603
G01 F600 X86.761 Y-40.508
G01 F600 X86.534 Y-40.460
G01 F600 X86.301 Y-40.460
G00 F3000 Z3.000
G00 F3000 X62.227 Y-44.806
G00 F1500 Z0
G01 F600 Z-0.200
G01 F600 X62.110 Y-44.831
G01 F600 X62.000 Y-44.880
G01 F600 X61.907 Y-44.948
G01 F600 X53.004 Y-53.851
G01 F600 X52.933 Y-53.930
G01 F600 X52.873 Y-54.034
G01 F600 X52.836 Y-54.148
G01 F600 X52.824 Y-54.258
G01 F600 X52.824 Y-56.204
G01 F600 X52.722 Y-56.317
G01 F600 X52.635 Y-56.468
G01 F600 X52.581 Y-56.634
G01 F600 X52.563 Y-56.807
G01 F600 X52.581 Y-56.981
G01 F600 X52.635 Y-57.147
G01 F600 X52.722 Y-57.298
G01 F600 X52.839 Y-57.427
G01 F600 X52.980 Y-57.530
G01 F600 X53.139 Y-57.601
G01 F600 X53.310 Y-57.637
G01 F600 X53.484 Y-57.637
G01 F600 X53.655 Y-57.601
G01 F600 X53.814 Y-57.530
G01 F600 X53.955 Y-57.427
G01 F600 X54.072 Y-57.298
G01 F600 X54.159 Y-57.147
G01 F600 X54.213 Y-56.981
G01 F600 X54.232 Y-56.807
G01 F600 X54.213 Y-56.634
G01 F600 X54.159 Y-56.468
G01 F600 X54.072 Y-56.317
G01 F600 X53.970 Y-56.204
G01 F600 X53.970 Y-54.504
G01 F600 X62.526 Y-45.948
G01 F600 X72.208 Y-45.948
G01 F600 X73.037 Y-46.776
G01 F600 X72.955 Y-46.918
G01 F600 X72.901 Y-47.083
G01 F600 X72.884 Y-47.248
G01 F600 X72.884 Y-48.587
G01 F600 X72.901 Y-48.751
G01 F600 X72.955 Y-48.917
G01 F600 X73.042 Y-49.068
G01 F600 X73.159 Y-49.198
G01 F600 X73.300 Y-49.300
G01 F600 X73.459 Y-49.371
G01 F600 X73.630 Y-49.407
G01 F600 X73.804 Y-49.407
G01 F600 X73.975 Y-49.371
G01 F600 X74.134 Y-49.300
G01 F600 X74.275 Y-49.198
G01 F600 X74.392 Y-49.068
G01 F600 X74.479 Y-48.917
G01 F600 X74.533 Y-48.751
G01 F600 X74.551 Y-48.587
G01 F600 X74.551 Y-47.248
G01 F600 X74.533 Y-47.083
G01 F600 X74.479 Y-46.918
G01 F600 X74.392 Y-46.767
G01 F600 X74.290 Y-46.653
G01 F600 X74.290 Y-46.638
G01 F600 X74.279 Y-46.528
G01 F600 X74.242 Y-46.414
G01 F600 X74.181 Y-46.310
G01 F600 X74.110 Y-46.231
G01 F600 X72.828 Y-44.948
G01 F600 X72.734 Y-44.880
G01 F600 X72.624 Y-44.831
G01 F600 X72.507 Y-44.806
G01 F600 X62.227 Y-44.806
G00 F3000 Z3.000
G00 F3000 X86.330 Y-46.427
G00 F1500 Z0
G01 F600 Z-0.200
G01 F600 X86.159 Y-46.463
G01 F600 X86.000 Y-46.534
G01 F600 X85.859 Y-46.637
G01 F600 X85.742 Y-46.767
G01 F600 X85.655 Y-46.918
G01 F600 X85.601 Y-47.083
G01 F600 X85.584 Y-47.248
G01 F600 X85.584 Y-48.587
G01 F600 X85.601 Y-48.751
G01 F600 X85.655 Y-48.917
G01 F600 X85.742 Y-49.068
G01 F600 X85.859 Y-49.198
G01 F600 X86.000 Y-49.300
G01 F600 X86.159 Y-49.371
G01 F600 X86.330 Y-49.407
G01 F600 X86.504 Y-49.407
G01 F600 X86.675 Y-49.371
G01 F600 X86.834 Y-49.300
G01 F600 X86.975 Y-49.198
G01 F600 X87.092 Y-49.068
G01 F600 X87.179 Y-48.917
G01 F600 X87.233 Y-48.751
G01 F600 X87.251 Y-48.587
G01 F600 X87.251 Y-47.248
G01 F600 X87.233 Y-47.083
G01 F600 X87.179 Y-46.918
G01 F600 X87.092 Y-46.767
G01 F600 X86.975 Y-46.637
G01 F600 X86.834 Y-46.534
G01 F600 X86.675 Y-46.463
G01 F600 X86.504 Y-46.427
G01 F600 X86.330 Y-46.427
G00 F3000 Z3.000
G00 F3000 X83.790 Y-46.427
G00 F1500 Z0
G01 F600 Z-0.200
G01 F600 X83.619 Y-46.463
G01 F600 X83.460 Y-46.534
G01 F600 X83.319 Y-46.637
G01 F600 X83.202 Y-46.767
G01 F600 X83.115 Y-46.918
G01 F600 X83.061 Y-47.083
G01 F600 X83.044 Y-47.248
G01 F600 X83.044 Y-48.587
G01 F600 X83.061 Y-48.751
G01 F600 X83.115 Y-48.917
G01 F600 X83.202 Y-49.068
G01 F600 X83.319 Y-49.198
G01 F600 X83.460 Y-49.300
G01 F600 X83.619 Y-49.371
G01 F600 X83.790 Y-49.407
G01 F600 X83.964 Y-49.407
G01 F600 X84.135 Y-49.371
G01 F600 X84.294 Y-49.300
G01 F600 X84.435 Y-49.198
G01 F600 X84.552 Y-49.068
G01 F600 X84.639 Y-48.917
G01 F600 X84.693 Y-48.751
G01 F600 X84.711 Y-48.587
G01 F600 X84.711 Y-47.248
G01 F600 X84.693 Y-47.083
G01 F600 X84.639 Y-46.918
G01 F600 X84.552 Y-46.767
G01 F600 X84.435 Y-46.637
G01 F600 X84.294 Y-46.534
G01 F600 X84.135 Y-46.463
G01 F600 X83.964 Y-46.427
G01 F600 X83.790 Y-46.427
G00 F3000 Z3.000
G00 F3000 X96.490 Y-46.427
G00 F1500 Z0
G01 F600 Z-0.200
G01 F600 X96.319 Y-46.463
G01 F600 X96.160 Y-46.534
G01 F600 X96.019 Y-46.637
G01 F600 X95.902 Y-46.767
G01 F600 X95.815 Y-46.918
G01 F600 X95.761 Y-47.083
G01 F600 X95.744 Y-47.248
G01 F600 X95.744 Y-48.587
G01 F600 X95.761 Y-48.751
G01 F600 X95.815 Y-48.917
G01 F600 X95.902 Y-49.068
G01 F600 X96.019 Y-49.198
G01 F600 X96.160 Y-49.300
G01 F600 X96.319 Y-49.371
G01 F600 X96.490 Y-49.407
G01 F600 X96.664 Y-49.407
G01 F600 X96.835 Y-49.371
G01 F600 X96.994 Y-49.300
G01 F600 X97.135 Y-49.198
G01 F600 X97.252 Y-49.068
G01 F600 X97.339 Y-48.917
G01 F600 X97.393 Y-48.751
G01 F600 X97.411 Y-48.587
G01 F600 X97.411 Y-47.248
G01 F600 X97.393 Y-47.083
G01 F600 X97.339 Y-46.918
G01 F600 X97.252 Y-46.767
G01 F600 X97.135 Y-46.637
G01 F600 X96.994 Y-46.534
G01 F600 X96.835 Y-46.463
G01 F600 X96.664 Y-46.427
G01 F600 X96.490 Y-46.427
G00 F3000 Z3.000
G00 F3000 X91.410 Y-46.427
G00 F1500 Z0
G01 F600 Z-0.200
G01 F600 X91.239 Y-46.463
G01 F600 X91.080 Y-46.534
G01 F600 X90.939 Y-46.637
G01 F600 X90.822 Y-46.767
G01 F600 X90.735 Y-46.918
G01 F600 X90.681 Y-47.083
G01 F600 X90.664 Y-47.248
G01 F600 X90.664 Y-48.587
G01 F600 X90.681 Y-48.751
G01 F600 X90.735 Y-48.917
G01 F600 X90.822 Y-49.068
G01 F600 X90.939 Y-49.198
G01 F600 X91.080 Y-49.300
G01 F600 X91.239 Y-49.371
G01 F600 X91.410 Y-49.407
G01 F600 X91.584 Y-49.407
G01 F600 X91.755 Y-49.371
G01 F600 X91.914 Y-49.300
G01 F600 X92.055 Y-49.198
G01 F600 X92.172 Y-49.068
G01 F600 X92.259 Y-48.917
G01 F600 X92.313 Y-48.751
G01 F600 X92.331 Y-48.587
G01 F600 X92.331 Y-47.248
G01 F600 X92.313 Y-47.083
G01 F600 X92.259 Y-46.918
G01 F600 X92.172 Y-46.767
G01 F600 X92.055 Y-46.637
G01 F600 X91.914 Y-46.534
G01 F600 X91.755 Y-46.463
G01 F600 X91.584 Y-46.427
G01 F600 X91.410 Y-46.427
G00 F3000 Z3.000
G00 F3000 X93.950 Y-46.427
G00 F1500 Z0
G01 F600 Z-0.200
G01 F600 X93.779 Y-46.463
G01 F600 X93.620 Y-46.534
G01 F600 X93.479 Y-46.637
G01 F600 X93.362 Y-46.767
G01 F600 X93.275 Y-46.918
G01 F600 X93.221 Y-47.083
G01 F600 X93.204 Y-47.248
G01 F600 X93.204 Y-48.587
G01 F600 X93.221 Y-48.751
G01 F600 X93.275 Y-48.917
G01 F600 X93.362 Y-49.068
G01 F600 X93.479 Y-49.198
G01 F600 X93.620 Y-49.300
G01 F600 X93.779 Y-49.371
G01 F600 X93.950 Y-49.407
G01 F600 X94.124 Y-49.407
G01 F600 X94.295 Y-49.371
G01 F600 X94.454 Y-49.300
G01 F600 X94.595 Y-49.198
G01 F600 X94.712 Y-49.068
G01 F600 X94.799 Y-48.917
G01 F600 X94.853 Y-48.751
G01 F600 X94.871 Y-48.587
G01 F600 X94.871 Y-47.248
G01 F600 X94.853 Y-47.083
G01 F600 X94.799 Y-46.918
G01 F600 X94.712 Y-46.767
G01 F600 X94.595 Y-46.637
G01 F600 X94.454 Y-46.534
G01 F600 X94.295 Y-46.463
G01 F600 X94.124 Y-46.427
G01 F600 X93.950 Y-46.427
G00 F3000 Z3.000
G00 F3000 X68.550 Y-46.427
G00 F1500 Z0
G01 F600 Z-0.200
G01 F600 X68.379 Y-46.463
G01 F600 X68.220 Y-46.534
G01 F600 X68.079 Y-46.637
G01 F600 X67.962 Y-46.767
G01 F600 X67.875 Y-46.918
G01 F600 X67.821 Y-47.083
G01 F600 X67.804 Y-47.248
G01 F600 X67.804 Y-48.587
G01 F600 X67.821 Y-48.751
G01 F600 X67.875 Y-48.917
G01 F600 X67.962 Y-49.068
G01 F600 X68.079 Y-49.198
G01 F600 X68.220 Y-49.300
G01 F600 X68.379 Y-49.371
G01 F600 X68.550 Y-49.407
G01 F600 X68.724 Y-49.407
G01 F600 X68.895 Y-49.371
G01 F600 X69.054 Y-49.300
G01 F600 X69.195 Y-49.198
G01 F600 X69.312 Y-49.068
G01 F600 X69.399 Y-48.917
G01 F600 X69.453 Y-48.751
G01 F600 X69.471 Y-48.587
G01 F600 X69.471 Y-47.248
G01 F600 X69.453 Y-47.083
G01 F600 X69.399 Y-46.918
G01 F600 X69.312 Y-46.767
G01 F600 X69.195 Y-46.637
G01 F600 X69.054 Y-46.534
G01 F600 X68.895 Y-46.463
G01 F600 X68.724 Y-46.427
G01 F600 X68.550 Y-46.427
G00 F3000 Z3.000
G00 F3000 X76.170 Y-46.427
G00 F1500 Z0
G01 F600 Z-0.200
G01 F600 X75.999 Y-46.463
G01 F600 X75.840 Y-46.534
G01 F600 X75.699 Y-46.637
G01 F600 X75.582 Y-46.767
G01 F600 X75.495 Y-46.918
G01 F600 X75.441 Y-47.083
G01 F600 X75.424 Y-47.248
G01 F600 X75.424 Y-48.587
G01 F600 X75.441 Y-48.751
G01 F600 X75.495 Y-48.917
G01 F600 X75.577 Y-49.058
G01 F600 X74.748 Y-49.886
G01 F600 X59.687 Y-49.886
G01 F600 X59.570 Y-49.911
G01 F600 X59.460 Y-49.960
G01 F600 X59.367 Y-50.028
G01 F600 X55.544 Y-53.851
G01 F600 X55.473 Y-53.930
G01 F600 X55.413 Y-54.034
G01 F600 X55.376 Y-54.148
G01 F600 X55.364 Y-54.258
G01 F600 X55.364 Y-56.204
G01 F600 X55.262 Y-56.317
G01 F600 X55.175 Y-56.468
G01 F600 X55.121 Y-56.634
G01 F600 X55.103 Y-56.807
G01 F600 X55.121 Y-56.981
G01 F600 X55.175 Y-57.147
G01 F600 X55.262 Y-57.298
G01 F600 X55.379 Y-57.427
G01 F600 X55.520 Y-57.530
G01 F600 X55.679 Y-57.601
G01 F600 X55.850 Y-57.637
G01 F600 X56.024 Y-57.637
G01 F600 X56.195 Y-57.601
G01 F600 X56.354 Y-57.530
G01 F600 X56.495 Y-57.427
G01 F600 X56.612 Y-57.298
G01 F600 X56.699 Y-57.147
G01 F600 X56.753 Y-56.981
G01 F600 X56.772 Y-56.807
G01 F600 X56.753 Y-56.634
G01 F600 X56.699 Y-56.468
G01 F600 X56.612 Y-56.317
G01 F600 X56.510 Y-56.204
G01 F600 X56.510 Y-54.504
G01 F600 X59.986 Y-51.028
G01 F600 X75.047 Y-51.028
G01 F600 X75.165 Y-51.003
G01 F600 X75.274 Y-50.954
G01 F600 X75.368 Y-50.887
G01 F600 X76.650 Y-49.604
G01 F600 X76.722 Y-49.525
G01 F600 X76.782 Y-49.421
G01 F600 X76.819 Y-49.307
G01 F600 X76.830 Y-49.196
G01 F600 X76.830 Y-49.181
G01 F600 X76.932 Y-49.068
G01 F600 X77.019 Y-48.917
G01 F600 X77.073 Y-48.751
G01 F600 X77.091 Y-48.587
G01 F600 X77.091 Y-47.248
G01 F600 X77.073 Y-47.083
G01 F600 X77.019 Y-46.918
G01 F600 X76.932 Y-46.767
G01 F600 X76.815 Y-46.637
G01 F600 X76.674 Y-46.534
G01 F600 X76.515 Y-46.463
G01 F600 X76.344 Y-46.427
G01 F600 X76.170 Y-46.427
G00 F3000 Z3.000
G00 F3000 X71.090 Y-46.427
G00 F1500 Z0
G01 F600 Z-0.200
G01 F600 X70.919 Y-46.463
G01 F600 X70.760 Y-46.534
G01 F600 X70.619 Y-46.637
G01 F600 X70.502 Y-46.767
G01 F600 X70.415 Y-46.918
G01 F600 X70.361 Y-47.083
G01 F600 X70.344 Y-47.248
G01 F600 X70.344 Y-48.587
G01 F600 X70.361 Y-48.751
G01 F600 X70.415 Y-48.917
G01 F600 X70.502 Y-49.068
G01 F600 X70.619 Y-49.198
G01 F600 X70.760 Y-49.300
G01 F600 X70.919 Y-49.371
G01 F600 X71.090 Y-49.407
G01 F600 X71.264 Y-49.407
G01 F600 X71.435 Y-49.371
G01 F600 X71.594 Y-49.300
G01 F600 X71.735 Y-49.198
G01 F600 X71.852 Y-49.068
G01 F600 X71.939 Y-48.917
G01 F600 X71.993 Y-48.751
G01 F600 X72.011 Y-48.587
G01 F600 X72.011 Y-47.248
G01 F600 X71.993 Y-47.083
G01 F600 X71.939 Y-46.918
G01 F600 X71.852 Y-46.767
G01 F600 X71.735 Y-46.637
G01 F600 X71.594 Y-46.534
G01 F600 X71.435 Y-46.463
G01 F600 X71.264 Y-46.427
G01 F600 X71.090 Y-46.427
G00 F3000 Z3.000
G00 F3000 X99.030 Y-54.047
G00 F1500 Z0
G01 F600 Z-0.200
G01 F600 X98.859 Y-54.083
G01 F600 X98.700 Y-54.154
G01 F600 X98.559 Y-54.257
G01 F600 X98.442 Y-54.387
G01 F600 X98.355 Y-54.538
G01 F600 X98.301 Y-54.703
G01 F600 X98.284 Y-54.868
G01 F600 X98.284 Y-56.207
G01 F600 X98.301 Y-56.371
G01 F600 X98.355 Y-56.537
G01 F600 X98.442 Y-56.688
G01 F600 X98.559 Y-56.818
G01 F600 X98.700 Y-56.920
G01 F600 X98.859 Y-56.991
G01 F600 X99.030 Y-57.028
G01 F600 X99.204 Y-57.028
G01 F600 X99.375 Y-56.991
G01 F600 X99.534 Y-56.920
G01 F600 X99.675 Y-56.818
G01 F600 X99.792 Y-56.688
G01 F600 X99.879 Y-56.537
G01 F600 X99.933 Y-56.371
G01 F600 X99.951 Y-56.207
G01 F600 X99.951 Y-54.868
G01 F600 X99.933 Y-54.703
G01 F600 X99.879 Y-54.538
G01 F600 X99.792 Y-54.387
G01 F600 X99.675 Y-54.257
G01 F600 X99.534 Y-54.154
G01 F600 X99.375 Y-54.083
G01 F600 X99.204 Y-54.047
G01 F600 X99.030 Y-54.047
G00 F3000 Z3.000
G00 F3000 X96.490 Y-54.047
G00 F1500 Z0
G01 F600 Z-0.200
G01 F600 X96.319 Y-54.083
G01 F600 X96.160 Y-54.154
G01 F600 X96.019 Y-54.257
G01 F600 X95.902 Y-54.387
G01 F600 X95.815 Y-54.538
G01 F600 X95.761 Y-54.703
G01 F600 X95.744 Y-54.868
G01 F600 X95.744 Y-56.207
G01 F600 X95.761 Y-56.371
G01 F600 X95.815 Y-56.537
G01 F600 X95.902 Y-56.688
G01 F600 X96.004 Y-56.801
G01 F600 X96.004 Y-65.706
G01 F600 X96.016 Y-65.817
G01 F600 X96.053 Y-65.931
G01 F600 X96.113 Y-66.035
G01 F600 X96.184 Y-66.114
G01 F600 X98.040 Y-67.969
G01 F600 X98.028 Y-68.006
G01 F600 X98.003 Y-68.237
G01 F600 X98.028 Y-68.469
G01 F600 X98.100 Y-68.690
G01 F600 X98.216 Y-68.892
G01 F600 X98.372 Y-69.065
G01 F600 X98.560 Y-69.202
G01 F600 X98.773 Y-69.297
G01 F600 X99.001 Y-69.345
G01 F600 X99.234 Y-69.345
G01 F600 X99.461 Y-69.297
G01 F600 X99.674 Y-69.202
G01 F600 X99.862 Y-69.065
G01 F600 X100.018 Y-68.892
G01 F600 X100.135 Y-68.690
G01 F600 X100.207 Y-68.469
G01 F600 X100.231 Y-68.237
G01 F600 X100.207 Y-68.006
G01 F600 X100.135 Y-67.784
G01 F600 X100.018 Y-67.583
G01 F600 X99.862 Y-67.410
G01 F600 X99.674 Y-67.273
G01 F600 X99.461 Y-67.178
G01 F600 X99.234 Y-67.130
G01 F600 X99.001 Y-67.130
G01 F600 X98.851 Y-67.161
G01 F600 X97.150 Y-65.461
G01 F600 X97.150 Y-56.801
G01 F600 X97.252 Y-56.688
G01 F600 X97.339 Y-56.537
G01 F600 X97.393 Y-56.371
G01 F600 X97.411 Y-56.207
G01 F600 X97.411 Y-54.868
G01 F600 X97.393 Y-54.703
G01 F600 X97.339 Y-54.538
G01 F600 X97.252 Y-54.387
G01 F600 X97.135 Y-54.257
G01 F600 X96.994 Y-54.154
G01 F600 X96.835 Y-54.083
G01 F600 X96.664 Y-54.047
G01 F600 X96.490 Y-54.047
G00 F3000 Z3.000
G00 F3000 X68.550 Y-54.047
G00 F1500 Z0
G01 F600 Z-0.200
G01 F600 X68.379 Y-54.083
G01 F600 X68.220 Y-54.154
G01 F600 X68.079 Y-54.257
G01 F600 X67.962 Y-54.387
G01 F600 X67.875 Y-54.538
G01 F600 X67.821 Y-54.703
G01 F600 X67.804 Y-54.868
G01 F600 X67.804 Y-56.207
G01 F600 X67.821 Y-56.371
G01 F600 X67.875 Y-56.537
G01 F600 X67.962 Y-56.688
G01 F600 X68.079 Y-56.818
G01 F600 X68.220 Y-56.920
G01 F600 X68.379 Y-56.991
G01 F600 X68.550 Y-57.028
G01 F600 X68.724 Y-57.028
G01 F600 X68.895 Y-56.991
G01 F600 X69.054 Y-56.920
G01 F600 X69.195 Y-56.818
G01 F600 X69.312 Y-56.688
G01 F600 X69.399 Y-56.537
G01 F600 X69.453 Y-56.371
G01 F600 X69.471 Y-56.207
G01 F600 X69.471 Y-54.868
G01 F600 X69.453 Y-54.703
G01 F600 X69.399 Y-54.538
G01 F600 X69.312 Y-54.387
G01 F600 X69.195 Y-54.257
G01 F600 X69.054 Y-54.154
G01 F600 X68.895 Y-54.083
G01 F600 X68.724 Y-54.047
G01 F600 X68.550 Y-54.047
G00 F3000 Z3.000
G00 F3000 X73.630 Y-54.047
G00 F1500 Z0
G01 F600 Z-0.200
G01 F600 X73.459 Y-54.083
G01 F600 X73.300 Y-54.154
G01 F600 X73.159 Y-54.257
G01 F600 X73.042 Y-54.387
G01 F600 X72.955 Y-54.538
G01 F600 X72.901 Y-54.703
G01 F600 X72.884 Y-54.868
G01 F600 X72.884 Y-56.207
G01 F600 X72.901 Y-56.371
G01 F600 X72.955 Y-56.537
G01 F600 X73.042 Y-56.688
G01 F600 X73.159 Y-56.818
G01 F600 X73.300 Y-56.920
G01 F600 X73.459 Y-56.991
G01 F600 X73.630 Y-57.028
G01 F600 X73.804 Y-57.028
G01 F600 X73.975 Y-56.991
G01 F600 X74.134 Y-56.920
G01 F600 X74.275 Y-56.818
G01 F600 X74.392 Y-56.688
G01 F600 X74.479 Y-56.537
G01 F600 X74.533 Y-56.371
G01 F600 X74.551 Y-56.207
G01 F600 X74.551 Y-54.868
G01 F600 X74.533 Y-54.703
G01 F600 X74.479 Y-54.538
G01 F600 X74.392 Y-54.387
G01 F600 X74.275 Y-54.257
G01 F600 X74.134 Y-54.154
G01 F600 X73.975 Y-54.083
G01 F600 X73.804 Y-54.047
G01 F600 X73.630 Y-54.047
G00 F3000 Z3.000
G00 F3000 X71.090 Y-54.047
G00 F1500 Z0
G01 F600 Z-0.200
G01 F600 X70.919 Y-54.083
G01 F600 X70.760 Y-54.154
G01 F600 X70.619 Y-54.257
G01 F600 X70.502 Y-54.387
G01 F600 X70.415 Y-54.538
G01 F600 X70.361 Y-54.703
G01 F600 X70.344 Y-54.868
G01 F600 X70.344 Y-56.207
G01 F600 X70.361 Y-56.371
G01 F600 X70.415 Y-56.537
G01 F600 X70.502 Y-56.688
G01 F600 X70.619 Y-56.818
G01 F600 X70.760 Y-56.920
G01 F600 X70.919 Y-56.991
G01 F600 X71.090 Y-57.028
G01 F600 X71.264 Y-57.028
G01 F600 X71.435 Y-56.991
G01 F600 X71.594 Y-56.920
G01 F600 X71.735 Y-56.818
G01 F600 X71.852 Y-56.688
G01 F600 X71.939 Y-56.537
G01 F600 X71.993 Y-56.371
G01 F600 X72.011 Y-56.207
G01 F600 X72.011 Y-54.868
G01 F600 X71.993 Y-54.703
G01 F600 X71.939 Y-54.538
G01 F600 X71.852 Y-54.387
G01 F600 X71.735 Y-54.257
G01 F600 X71.594 Y-54.154
G01 F600 X71.435 Y-54.083
G01 F600 X71.264 Y-54.047
G01 F600 X71.090 Y-54.047
G00 F3000 Z3.000
G00 F3000 X88.870 Y-54.047
G00 F1500 Z0
G01 F600 Z-0.200
G01 F600 X88.699 Y-54.083
G01 F600 X88.540 Y-54.154
G01 F600 X88.399 Y-54.257
G01 F600 X88.282 Y-54.387
G01 F600 X88.195 Y-54.538
G01 F600 X88.141 Y-54.703
G01 F600 X88.124 Y-54.868
G01 F600 X88.124 Y-56.207
G01 F600 X88.141 Y-56.371
G01 F600 X88.195 Y-56.537
G01 F600 X88.282 Y-56.688
G01 F600 X88.399 Y-56.818
G01 F600 X88.540 Y-56.920
G01 F600 X88.699 Y-56.991
G01 F600 X88.870 Y-57.028
G01 F600 X89.044 Y-57.028
G01 F600 X89.215 Y-56.991
G01 F600 X89.374 Y-56.920
G01 F600 X89.515 Y-56.818
G01 F600 X89.632 Y-56.688
G01 F600 X89.719 Y-56.537
G01 F600 X89.773 Y-56.371
G01 F600 X89.791 Y-56.207
G01 F600 X89.791 Y-54.868
G01 F600 X89.773 Y-54.703
G01 F600 X89.719 Y-54.538
G01 F600 X89.632 Y-54.387
G01 F600 X89.515 Y-54.257
G01 F600 X89.374 Y-54.154
G01 F600 X89.215 Y-54.083
G01 F600 X89.044 Y-54.047
G01 F600 X88.870 Y-54.047
G00 F3000 Z3.000
G00 F3000 X86.330 Y-54.047
G00 F1500 Z0
G01 F600 Z-0.200
G01 F600 X86.159 Y-54.083
G01 F600 X86.000 Y-54.154
G01 F600 X85.859 Y-54.257
G01 F600 X85.742 Y-54.387
G01 F600 X85.655 Y-54.538
G01 F600 X85.601 Y-54.703
G01 F600 X85.584 Y-54.868
G01 F600 X85.584 Y-56.207
G01 F600 X85.601 Y-56.371
G01 F600 X85.655 Y-56.537
G01 F600 X85.742 Y-56.688
G01 F600 X85.859 Y-56.818
G01 F600 X86.000 Y-56.920
G01 F600 X86.159 Y-56.991
G01 F600 X86.330 Y-57.028
G01 F600 X86.504 Y-57.028
G01 F600 X86.675 Y-56.991
G01 F600 X86.834 Y-56.920
G01 F600 X86.975 Y-56.818
G01 F600 X87.092 Y-56.688
G01 F600 X87.179 Y-56.537
G01 F600 X87.233 Y-56.371
G01 F600 X87.251 Y-56.207
G01 F600 X87.251 Y-54.868
G01 F600 X87.233 Y-54.703
G01 F600 X87.179 Y-54.538
G01 F600 X87.092 Y-54.387
G01 F600 X86.975 Y-54.257
G01 F600 X86.834 Y-54.154
G01 F600 X86.675 Y-54.083
G01 F600 X86.504 Y-54.047
G01 F600 X86.330 Y-54.047
G00 F3000 Z3.000
G00 F3000 X93.950 Y-54.047
G00 F1500 Z0
G01 F600 Z-0.200
G01 F600 X93.779 Y-54.083
G01 F600 X93.620 Y-54.154
G01 F600 X93.479 Y-54.257
G01 F600 X93.362 Y-54.387
G01 F600 X93.275 Y-54.538
G01 F600 X93.221 Y-54.703
G01 F600 X93.204 Y-54.868
G01 F600 X93.204 Y-56.207
G01 F600 X93.221 Y-56.371
G01 F600 X93.275 Y-56.537
G01 F600 X93.362 Y-56.688
G01 F600 X93.479 Y-56.818
G01 F600 X93.620 Y-56.920
G01 F600 X93.779 Y-56.991
G01 F600 X93.950 Y-57.028
G01 F600 X94.124 Y-57.028
G01 F600 X94.295 Y-56.991
G01 F600 X94.454 Y-56.920
G01 F600 X94.595 Y-56.818
G01 F600 X94.712 Y-56.688
G01 F600 X94.799 Y-56.537
G01 F600 X94.853 Y-56.371
G01 F600 X94.871 Y-56.207
G01 F600 X94.871 Y-54.868
G01 F600 X94.853 Y-54.703
G01 F600 X94.799 Y-54.538
G01 F600 X94.712 Y-54.387
G01 F600 X94.595 Y-54.257
G01 F600 X94.454 Y-54.154
G01 F600 X94.295 Y-54.083
G01 F600 X94.124 Y-54.047
G01 F600 X93.950 Y-54.047
G00 F3000 Z3.000
G00 F3000 X91.410 Y-54.047
G00 F1500 Z0
G01 F600 Z-0.200
G01 F600 X91.239 Y-54.083
G01 F600 X91.080 Y-54.154
G01 F600 X90.939 Y-54.257
G01 F600 X90.822 Y-54.387
G01 F600 X90.735 Y-54.538
G01 F600 X90.681 Y-54.703
G01 F600 X90.664 Y-54.868
G01 F600 X90.664 Y-56.207
G01 F600 X90.681 Y-56.371
G01 F600 X90.735 Y-56.537
G01 F600 X90.822 Y-56.688
G01 F600 X90.939 Y-56.818
G01 F600 X91.080 Y-56.920
G01 F600 X91.239 Y-56.991
G01 F600 X91.410 Y-57.028
G01 F600 X91.584 Y-57.028
G01 F600 X91.755 Y-56.991
G01 F600 X91.914 Y-56.920
G01 F600 X92.055 Y-56.818
G01 F600 X92.172 Y-56.688
G01 F600 X92.259 Y-56.537
G01 F600 X92.313 Y-56.371
G01 F600 X92.331 Y-56.207
G01 F600 X92.331 Y-54.868
G01 F600 X92.313 Y-54.703
G01 F600 X92.259 Y-54.538
G01 F600 X92.172 Y-54.387
G01 F600 X92.055 Y-54.257
G01 F600 X91.914 Y-54.154
G01 F600 X91.755 Y-54.083
G01 F600 X91.584 Y-54.047
G01 F600 X91.410 Y-54.047
G00 F3000 Z3.000
G00 F3000 X78.710 Y-54.047
G00 F1500 Z0
G01 F600 Z-0.200
G01 F600 X78.539 Y-54.083
G01 F600 X78.380 Y-54.154
G01 F600 X78.239 Y-54.257
G01 F600 X78.122 Y-54.387
G01 F600 X78.035 Y-54.538
G01 F600 X77.981 Y-54.703
G01 F600 X77.964 Y-54.868
G01 F600 X77.964 Y-56.207
G01 F600 X77.981 Y-56.371
G01 F600 X78.035 Y-56.537
G01 F600 X78.122 Y-56.688
G01 F600 X78.224 Y-56.801
G01 F600 X78.224 Y-59.111
G01 F600 X77.698 Y-59.637
G01 F600 X77.632 Y-59.623
G01 F600 X77.423 Y-59.623
G01 F600 X77.218 Y-59.667
G01 F600 X77.027 Y-59.752
G01 F600 X76.858 Y-59.875
G01 F600 X76.719 Y-60.030
G01 F600 X76.614 Y-60.211
G01 F600 X76.550 Y-60.410
G01 F600 X76.528 Y-60.617
G01 F600 X76.550 Y-60.825
G01 F600 X76.614 Y-61.024
G01 F600 X76.719 Y-61.205
G01 F600 X76.859 Y-61.361
G01 F600 X76.954 Y-61.428
G01 F600 X76.942 Y-64.894
G01 F600 X76.858 Y-64.955
G01 F600 X76.719 Y-65.110
G01 F600 X76.614 Y-65.291
G01 F600 X76.550 Y-65.490
G01 F600 X76.528 Y-65.697
G01 F600 X76.550 Y-65.905
G01 F600 X76.614 Y-66.104
G01 F600 X76.719 Y-66.285
G01 F600 X76.858 Y-66.440
G01 F600 X77.027 Y-66.563
G01 F600 X77.218 Y-66.648
G01 F600 X77.423 Y-66.691
G01 F600 X77.632 Y-66.691
G01 F600 X77.836 Y-66.648
G01 F600 X78.027 Y-66.563
G01 F600 X78.196 Y-66.440
G01 F600 X78.336 Y-66.285
G01 F600 X78.440 Y-66.104
G01 F600 X78.505 Y-65.905
G01 F600 X78.527 Y-65.697
G01 F600 X78.505 Y-65.490
G01 F600 X78.440 Y-65.291
G01 F600 X78.336 Y-65.110
G01 F600 X78.195 Y-64.954
G01 F600 X78.100 Y-64.887
G01 F600 X78.113 Y-61.421
G01 F600 X78.196 Y-61.360
G01 F600 X78.336 Y-61.205
G01 F600 X78.440 Y-61.024
G01 F600 X78.505 Y-60.825
G01 F600 X78.527 Y-60.617
G01 F600 X78.509 Y-60.446
G01 F600 X79.190 Y-59.764
G01 F600 X79.261 Y-59.685
G01 F600 X79.322 Y-59.581
G01 F600 X79.359 Y-59.467
G01 F600 X79.370 Y-59.356
G01 F600 X79.370 Y-56.801
G01 F600 X79.472 Y-56.688
G01 F600 X79.559 Y-56.537
G01 F600 X79.613 Y-56.371
G01 F600 X79.631 Y-56.207
G01 F600 X79.631 Y-54.868
G01 F600 X79.613 Y-54.703
G01 F600 X79.559 Y-54.538
G01 F600 X79.472 Y-54.387
G01 F600 X79.355 Y-54.257
G01 F600 X79.214 Y-54.154
G01 F600 X79.055 Y-54.083
G01 F600 X78.884 Y-54.047
G01 F600 X78.710 Y-54.047
G00 F3000 Z3.000
G00 F3000 X76.170 Y-54.047
G00 F1500 Z0
G01 F600 Z-0.200
G01 F600 X75.999 Y-54.083
G01 F600 X75.840 Y-54.154
G01 F600 X75.699 Y-54.257
G01 F600 X75.582 Y-54.387
G01 F600 X75.495 Y-54.538
G01 F600 X75.441 Y-54.703
G01 F600 X75.424 Y-54.868
G01 F600 X75.424 Y-56.207
G01 F600 X75.441 Y-56.371
G01 F600 X75.495 Y-56.537
G01 F600 X75.582 Y-56.688
G01 F600 X75.699 Y-56.818
G01 F600 X75.840 Y-56.920
G01 F600 X75.999 Y-56.991
G01 F600 X76.170 Y-57.028
G01 F600 X76.344 Y-57.028
G01 F600 X76.515 Y-56.991
G01 F600 X76.674 Y-56.920
G01 F600 X76.815 Y-56.818
G01 F600 X76.932 Y-56.688
G01 F600 X77.019 Y-56.537
G01 F600 X77.073 Y-56.371
G01 F600 X77.091 Y-56.207
G01 F600 X77.091 Y-54.868
G01 F600 X77.073 Y-54.703
G01 F600 X77.019 Y-54.538
G01 F600 X76.932 Y-54.387
G01 F600 X76.815 Y-54.257
G01 F600 X76.674 Y-54.154
G01 F600 X76.515 Y-54.083
G01 F600 X76.344 Y-54.047
G01 F600 X76.170 Y-54.047
G00 F3000 Z3.000
G00 F3000 X81.250 Y-54.047
G00 F1500 Z0
G01 F600 Z-0.200
G01 F600 X81.079 Y-54.083
G01 F600 X80.920 Y-54.154
G01 F600 X80.779 Y-54.257
G01 F600 X80.662 Y-54.387
G01 F600 X80.575 Y-54.538
G01 F600 X80.521 Y-54.703
G01 F600 X80.504 Y-54.868
G01 F600 X80.504 Y-56.207
G01 F600 X80.521 Y-56.371
G01 F600 X80.575 Y-56.537
G01 F600 X80.662 Y-56.688
G01 F600 X80.764 Y-56.801
G01 F600 X80.764 Y-59.356
G01 F600 X80.776 Y-59.467
G01 F600 X80.813 Y-59.581
G01 F600 X80.873 Y-59.685
G01 F600 X80.944 Y-59.764
G01 F600 X81.626 Y-60.446
G01 F600 X81.608 Y-60.617
G01 F600 X81.630 Y-60.825
G01 F600 X81.694 Y-61.024
G01 F600 X81.799 Y-61.205
G01 F600 X81.939 Y-61.361
G01 F600 X82.034 Y-61.428
G01 F600 X82.022 Y-64.894
G01 F600 X81.938 Y-64.955
G01 F600 X81.799 Y-65.110
G01 F600 X81.694 Y-65.291
G01 F600 X81.630 Y-65.490
G01 F600 X81.608 Y-65.697
G01 F600 X81.630 Y-65.905
G01 F600 X81.694 Y-66.104
G01 F600 X81.799 Y-66.285
G01 F600 X81.938 Y-66.440
G01 F600 X82.107 Y-66.563
G01 F600 X82.298 Y-66.648
G01 F600 X82.503 Y-66.691
G01 F600 X82.712 Y-66.691
G01 F600 X82.916 Y-66.648
G01 F600 X83.107 Y-66.563
G01 F600 X83.276 Y-66.440
G01 F600 X83.416 Y-66.285
G01 F600 X83.520 Y-66.104
G01 F600 X83.585 Y-65.905
G01 F600 X83.607 Y-65.697
G01 F600 X83.585 Y-65.490
G01 F600 X83.520 Y-65.291
G01 F600 X83.416 Y-65.110
G01 F600 X83.275 Y-64.954
G01 F600 X83.181 Y-64.887
G01 F600 X83.193 Y-61.421
G01 F600 X83.276 Y-61.360
G01 F600 X83.416 Y-61.205
G01 F600 X83.520 Y-61.024
G01 F600 X83.585 Y-60.825
G01 F600 X83.607 Y-60.617
G01 F600 X83.585 Y-60.410
G01 F600 X83.520 Y-60.211
G01 F600 X83.416 Y-60.030
G01 F600 X83.276 Y-59.875
G01 F600 X83.107 Y-59.752
G01 F600 X82.916 Y-59.667
G01 F600 X82.712 Y-59.623
G01 F600 X82.503 Y-59.623
G01 F600 X82.437 Y-59.637
G01 F600 X81.910 Y-59.111
G01 F600 X81.910 Y-56.801
G01 F600 X82.012 Y-56.688
G01 F600 X82.099 Y-56.537
G01 F600 X82.153 Y-56.371
G01 F600 X82.171 Y-56.207
G01 F600 X82.171 Y-54.868
G01 F600 X82.153 Y-54.703
G01 F600 X82.099 Y-54.538
G01 F600 X82.012 Y-54.387
G01 F600 X81.895 Y-54.257
G01 F600 X81.754 Y-54.154
G01 F600 X81.595 Y-54.083
G01 F600 X81.424 Y-54.047
G01 F600 X81.250 Y-54.047
G00 F3000 Z3.000
G00 F3000 X90.111 Y-62.050
G00 F1500 Z0
G01 F600 Z-0.200
G01 F600 X89.883 Y-62.098
G01 F600 X89.670 Y-62.193
G01 F600 X89.482 Y-62.330
G01 F600 X89.326 Y-62.503
G01 F600 X89.210 Y-62.704
G01 F600 X89.138 Y-62.926
G01 F600 X89.113 Y-63.157
G01 F600 X89.138 Y-63.389
G01 F600 X89.150 Y-63.425
G01 F600 X86.024 Y-66.551
G01 F600 X85.953 Y-66.630
G01 F600 X85.893 Y-66.734
G01 F600 X85.856 Y-66.848
G01 F600 X85.844 Y-66.958
G01 F600 X85.844 Y-67.285
G01 F600 X85.672 Y-67.410
G01 F600 X85.516 Y-67.583
G01 F600 X85.400 Y-67.784
G01 F600 X85.328 Y-68.006
G01 F600 X85.303 Y-68.237
G01 F600 X85.328 Y-68.469
G01 F600 X85.400 Y-68.690
G01 F600 X85.516 Y-68.892
G01 F600 X85.672 Y-69.065
G01 F600 X85.860 Y-69.202
G01 F600 X86.073 Y-69.297
G01 F600 X86.301 Y-69.345
G01 F600 X86.534 Y-69.345
G01 F600 X86.761 Y-69.297
G01 F600 X86.974 Y-69.202
G01 F600 X87.162 Y-69.065
G01 F600 X87.318 Y-68.892
G01 F600 X87.435 Y-68.690
G01 F600 X87.507 Y-68.469
G01 F600 X87.531 Y-68.237
G01 F600 X87.507 Y-68.006
G01 F600 X87.435 Y-67.784
G01 F600 X87.318 Y-67.583
G01 F600 X87.162 Y-67.410
G01 F600 X86.990 Y-67.285
G01 F600 X86.990 Y-67.204
G01 F600 X89.961 Y-64.233
G01 F600 X90.111 Y-64.265
G01 F600 X90.344 Y-64.265
G01 F600 X90.571 Y-64.216
G01 F600 X90.784 Y-64.122
G01 F600 X90.972 Y-63.985
G01 F600 X91.128 Y-63.812
G01 F600 X91.245 Y-63.610
G01 F600 X91.317 Y-63.389
G01 F600 X91.341 Y-63.157
G01 F600 X91.317 Y-62.926
G01 F600 X91.245 Y-62.704
G01 F600 X91.128 Y-62.503
G01 F600 X90.972 Y-62.330
G01 F600 X90.784 Y-62.193
G01 F600 X90.571 Y-62.098
G01 F600 X90.344 Y-62.050
G01 F600 X90.111 Y-62.050
G00 F3000 Z3.000
G00 F3000 X68.271 Y-62.273
G00 F1500 Z0
G01 F600 Z-0.200
G01 F600 X67.958 Y-62.586
G01 F600 X59.687 Y-62.586
G01 F600 X59.570 Y-62.611
G01 F600 X59.460 Y-62.660
G01 F600 X59.368 Y-62.727
G01 F600 X58.476 Y-63.598
G01 F600 X58.390 Y-63.598
G01 F600 X58.219 Y-63.634
G01 F600 X58.060 Y-63.705
G01 F600 X57.919 Y-63.807
G01 F600 X57.802 Y-63.937
G01 F600 X57.715 Y-64.088
G01 F600 X57.661 Y-64.254
G01 F600 X57.643 Y-64.427
G01 F600 X57.661 Y-64.601
G01 F600 X57.715 Y-64.767
G01 F600 X57.802 Y-64.918
G01 F600 X57.904 Y-65.031
G01 F600 X57.904 Y-65.706
G01 F600 X57.916 Y-65.817
G01 F600 X57.953 Y-65.931
G01 F600 X58.013 Y-66.035
G01 F600 X58.084 Y-66.114
G01 F600 X58.470 Y-66.499
G01 F600 X58.464 Y-66.509
G01 F600 X58.391 Y-66.733
G01 F600 X58.367 Y-66.967
G01 F600 X58.391 Y-67.202
G01 F600 X58.464 Y-67.425
G01 F600 X58.582 Y-67.629
G01 F600 X58.739 Y-67.804
G01 F600 X58.930 Y-67.943
G01 F600 X59.145 Y-68.039
G01 F600 X59.375 Y-68.088
G01 F600 X59.611 Y-68.088
G01 F600 X59.841 Y-68.039
G01 F600 X60.056 Y-67.943
G01 F600 X60.247 Y-67.804
G01 F600 X60.405 Y-67.629
G01 F600 X60.522 Y-67.425
G01 F600 X60.595 Y-67.202
G01 F600 X60.620 Y-66.967
G01 F600 X60.595 Y-66.733
G01 F600 X60.522 Y-66.509
G01 F600 X60.405 Y-66.305
G01 F600 X60.247 Y-66.130
G01 F600 X60.056 Y-65.992
G01 F600 X59.841 Y-65.896
G01 F600 X59.609 Y-65.847
G01 F600 X59.440 Y-65.850
G01 F600 X59.050 Y-65.461
G01 F600 X59.050 Y-65.031
G01 F600 X59.152 Y-64.918
G01 F600 X59.239 Y-64.767
G01 F600 X59.293 Y-64.601
G01 F600 X59.312 Y-64.427
G01 F600 X59.309 Y-64.405
G01 F600 X59.986 Y-63.728
G01 F600 X67.958 Y-63.728
G01 F600 X68.271 Y-64.041
G01 F600 X69.003 Y-64.041
G01 F600 X69.317 Y-63.728
G01 F600 X70.498 Y-63.728
G01 F600 X70.811 Y-64.041
G01 F600 X71.543 Y-64.041
G01 F600 X72.061 Y-63.524
G01 F600 X72.061 Y-62.791
G01 F600 X71.543 Y-62.273
G01 F600 X70.811 Y-62.273
G01 F600 X70.498 Y-62.586
G01 F600 X69.317 Y-62.586
G01 F600 X69.003 Y-62.273
G01 F600 X68.271 Y-62.273
G00 F3000 Z3.000
G00 F3000 X53.310 Y-63.598
G00 F1500 Z0
G01 F600 Z-0.200
G01 F600 X53.139 Y-63.634
G01 F600 X52.980 Y-63.705
G01 F600 X52.839 Y-63.807
G01 F600 X52.722 Y-63.937
G01 F600 X52.635 Y-64.088
G01 F600 X52.581 Y-64.254
G01 F600 X52.563 Y-64.427
G01 F600 X52.581 Y-64.601
G01 F600 X52.635 Y-64.767
G01 F600 X52.722 Y-64.918
G01 F600 X52.824 Y-65.031
G01 F600 X52.824 Y-66.976
G01 F600 X52.836 Y-67.087
G01 F600 X52.873 Y-67.201
G01 F600 X52.933 Y-67.305
G01 F600 X53.004 Y-67.384
G01 F600 X58.097 Y-72.477
G01 F600 X58.190 Y-72.544
G01 F600 X58.300 Y-72.593
G01 F600 X58.417 Y-72.618
G01 F600 X63.617 Y-72.618
G01 F600 X63.735 Y-72.593
G01 F600 X63.844 Y-72.544
G01 F600 X63.938 Y-72.477
G01 F600 X67.606 Y-68.808
G01 F600 X67.958 Y-68.808
G01 F600 X68.271 Y-69.121
G01 F600 X69.003 Y-69.121
G01 F600 X69.317 Y-68.808
G01 F600 X70.498 Y-68.808
G01 F600 X70.811 Y-69.121
G01 F600 X71.543 Y-69.121
G01 F600 X72.061 Y-68.603
G01 F600 X72.061 Y-67.871
G01 F600 X71.543 Y-67.353
G01 F600 X70.811 Y-67.353
G01 F600 X70.498 Y-67.666
G01 F600 X69.317 Y-67.666
G01 F600 X69.003 Y-67.353
G01 F600 X68.271 Y-67.353
G01 F600 X67.958 Y-67.666
G01 F600 X67.307 Y-67.666
G01 F600 X67.190 Y-67.691
G01 F600 X67.080 Y-67.740
G01 F600 X66.987 Y-67.808
G01 F600 X63.318 Y-71.476
G01 F600 X58.716 Y-71.476
G01 F600 X53.970 Y-66.731
G01 F600 X53.970 Y-65.031
G01 F600 X54.072 Y-64.918
G01 F600 X54.159 Y-64.767
G01 F600 X54.213 Y-64.601
G01 F600 X54.232 Y-64.427
G01 F600 X54.213 Y-64.254
G01 F600 X54.159 Y-64.088
G01 F600 X54.072 Y-63.937
G01 F600 X53.955 Y-63.807
G01 F600 X53.814 Y-63.705
G01 F600 X53.655 Y-63.634
G01 F600 X53.484 Y-63.598
G01 F600 X53.310 Y-63.598
G00 F3000 Z3.000
G00 F3000 X55.850 Y-63.598
G00 F1500 Z0
G01 F600 Z-0.200
G01 F600 X55.679 Y-63.634
G01 F600 X55.520 Y-63.705
G01 F600 X55.379 Y-63.807
G01 F600 X55.262 Y-63.937
G01 F600 X55.175 Y-64.088
G01 F600 X55.121 Y-64.254
G01 F600 X55.103 Y-64.427
G01 F600 X55.121 Y-64.601
G01 F600 X55.175 Y-64.767
G01 F600 X55.262 Y-64.918
G01 F600 X55.364 Y-65.031
G01 F600 X55.364 Y-66.976
G01 F600 X55.376 Y-67.087
G01 F600 X55.413 Y-67.201
G01 F600 X55.473 Y-67.305
G01 F600 X55.544 Y-67.384
G01 F600 X58.097 Y-69.937
G01 F600 X58.190 Y-70.004
G01 F600 X58.300 Y-70.053
G01 F600 X58.417 Y-70.078
G01 F600 X63.617 Y-70.078
G01 F600 X63.735 Y-70.053
G01 F600 X63.844 Y-70.004
G01 F600 X63.938 Y-69.937
G01 F600 X67.606 Y-66.268
G01 F600 X67.958 Y-66.268
G01 F600 X68.271 Y-66.582
G01 F600 X69.003 Y-66.582
G01 F600 X69.317 Y-66.268
G01 F600 X70.498 Y-66.268
G01 F600 X70.811 Y-66.582
G01 F600 X71.543 Y-66.582
G01 F600 X72.061 Y-66.064
G01 F600 X72.061 Y-65.331
G01 F600 X71.543 Y-64.813
G01 F600 X70.811 Y-64.813
G01 F600 X70.498 Y-65.126
G01 F600 X69.317 Y-65.126
G01 F600 X69.003 Y-64.813
G01 F600 X68.271 Y-64.813
G01 F600 X67.958 Y-65.126
G01 F600 X67.307 Y-65.126
G01 F600 X67.190 Y-65.151
G01 F600 X67.080 Y-65.200
G01 F600 X66.987 Y-65.268
G01 F600 X63.318 Y-68.936
G01 F600 X58.716 Y-68.936
G01 F600 X56.510 Y-66.731
G01 F600 X56.510 Y-65.031
G01 F600 X56.612 Y-64.918
G01 F600 X56.699 Y-64.767
G01 F600 X56.753 Y-64.601
G01 F600 X56.772 Y-64.427
G01 F600 X56.753 Y-64.254
G01 F600 X56.699 Y-64.088
G01 F600 X56.612 Y-63.937
G01 F600 X56.495 Y-63.807
G01 F600 X56.354 Y-63.705
G01 F600 X56.195 Y-63.634
G01 F600 X56.024 Y-63.598
G01 F600 X55.850 Y-63.598
G00 F3000 Z3.000
G00 F3000 X65.834 Y-82.521
G00 F1500 Z0
G01 F600 Z-0.200
G01 F600 X65.757 Y-82.537
G01 F600 X65.685 Y-82.569
G01 F600 X65.621 Y-82.615
G01 F600 X65.569 Y-82.674
G01 F600 X65.529 Y-82.742
G01 F600 X65.505 Y-82.817
G01 F600 X65.497 Y-82.887
G01 F600 X65.497 Y-83.684
G01 F600 X65.505 Y-83.754
G01 F600 X65.529 Y-83.829
G01 F600 X65.569 Y-83.897
G01 F600 X65.621 Y-83.956
G01 F600 X65.685 Y-84.002
G01 F600 X65.757 Y-84.034
G01 F600 X65.834 Y-84.050
G01 F600 X65.913 Y-84.050
G01 F600 X65.990 Y-84.034
G01 F600 X66.062 Y-84.002
G01 F600 X66.126 Y-83.956
G01 F600 X66.179 Y-83.897
G01 F600 X66.218 Y-83.829
G01 F600 X66.243 Y-83.754
G01 F600 X66.250 Y-83.684
G01 F600 X66.250 Y-82.887
G01 F600 X66.243 Y-82.817
G01 F600 X66.218 Y-82.742
G01 F600 X66.179 Y-82.674
G01 F600 X66.126 Y-82.615
G01 F600 X66.062 Y-82.569
G01 F600 X65.990 Y-82.537
G01 F600 X65.913 Y-82.521
G01 F600 X65.834 Y-82.521
G00 F3000 Z3.000
G00 F3000 X86.883 Y-83.300
G00 F1500 Z0
G01 F600 Z-0.200
G01 F600 X86.806 Y-83.317
G01 F600 X86.734 Y-83.349
G01 F600 X86.670 Y-83.395
G01 F600 X86.618 Y-83.454
G01 F600 X86.578 Y-83.522
G01 F600 X86.554 Y-83.597
G01 F600 X86.546 Y-83.666
G01 F600 X86.546 Y-88.363
G01 F600 X86.554 Y-88.433
G01 F600 X86.578 Y-88.508
G01 F600 X86.618 Y-88.576
G01 F600 X86.670 Y-88.634
G01 F600 X86.734 Y-88.681
G01 F600 X86.806 Y-88.713
G01 F600 X86.883 Y-88.729
G01 F600 X89.301 Y-88.729
G01 F600 X89.379 Y-88.713
G01 F600 X89.451 Y-88.681
G01 F600 X89.511 Y-88.637
G01 F600 X90.301 Y-87.844
G01 F600 X90.344 Y-87.796
G01 F600 X90.384 Y-87.728
G01 F600 X90.408 Y-87.653
G01 F600 X90.415 Y-87.583
G01 F600 X90.415 Y-86.785
G01 F600 X90.408 Y-86.716
G01 F600 X90.384 Y-86.641
G01 F600 X90.344 Y-86.573
G01 F600 X90.301 Y-86.525
G01 F600 X89.793 Y-86.015
G01 F600 X90.301 Y-85.505
G01 F600 X90.344 Y-85.457
G01 F600 X90.384 Y-85.388
G01 F600 X90.408 Y-85.313
G01 F600 X90.415 Y-85.244
G01 F600 X90.415 Y-84.446
G01 F600 X90.408 Y-84.377
G01 F600 X90.384 Y-84.302
G01 F600 X90.344 Y-84.234
G01 F600 X90.301 Y-84.185
G01 F600 X89.511 Y-83.392
G01 F600 X89.451 Y-83.349
G01 F600 X89.379 Y-83.317
G01 F600 X89.301 Y-83.300
G01 F600 X86.883 Y-83.300
G00 F3000 Z3.000
G00 F3000 X77.528 Y-83.300
G00 F1500 Z0
G01 F600 Z-0.200
G01 F600 X77.451 Y-83.317
G01 F600 X77.379 Y-83.349
G01 F600 X77.315 Y-83.395
G01 F600 X77.263 Y-83.454
G01 F600 X77.223 Y-83.522
G01 F600 X77.199 Y-83.597
G01 F600 X77.192 Y-83.666
G01 F600 X77.192 Y-88.363
G01 F600 X77.199 Y-88.433
G01 F600 X77.223 Y-88.508
G01 F600 X77.263 Y-88.576
G01 F600 X77.315 Y-88.634
G01 F600 X77.379 Y-88.681
G01 F600 X77.451 Y-88.713
G01 F600 X77.528 Y-88.729
G01 F600 X77.607 Y-88.729
G01 F600 X77.684 Y-88.713
G01 F600 X77.756 Y-88.681
G01 F600 X77.820 Y-88.634
G01 F600 X77.873 Y-88.576
G01 F600 X77.912 Y-88.508
G01 F600 X77.937 Y-88.433
G01 F600 X77.944 Y-88.363
G01 F600 X77.944 Y-87.170
G01 F600 X79.944 Y-87.170
G01 F600 X80.021 Y-87.153
G01 F600 X80.093 Y-87.121
G01 F600 X80.153 Y-87.078
G01 F600 X80.946 Y-86.285
G01 F600 X80.990 Y-86.236
G01 F600 X81.029 Y-86.168
G01 F600 X81.053 Y-86.093
G01 F600 X81.061 Y-86.024
G01 F600 X81.061 Y-84.446
G01 F600 X81.053 Y-84.377
G01 F600 X81.029 Y-84.302
G01 F600 X80.990 Y-84.234
G01 F600 X80.946 Y-84.185
G01 F600 X80.153 Y-83.392
G01 F600 X80.093 Y-83.349
G01 F600 X80.021 Y-83.317
G01 F600 X79.944 Y-83.300
G01 F600 X77.528 Y-83.300
G00 F3000 Z3.000
G00 F3000 X71.290 Y-83.300
G00 F1500 Z0
G01 F600 Z-0.200
G01 F600 X71.213 Y-83.317
G01 F600 X71.141 Y-83.349
G01 F600 X71.077 Y-83.395
G01 F600 X71.024 Y-83.454
G01 F600 X70.985 Y-83.522
G01 F600 X70.961 Y-83.597
G01 F600 X70.953 Y-83.666
G01 F600 X70.953 Y-84.860
G01 F600 X68.951 Y-84.860
G01 F600 X68.874 Y-84.876
G01 F600 X68.802 Y-84.908
G01 F600 X68.741 Y-84.953
G01 F600 X67.949 Y-85.745
G01 F600 X67.905 Y-85.793
G01 F600 X67.866 Y-85.861
G01 F600 X67.841 Y-85.936
G01 F600 X67.834 Y-86.006
G01 F600 X67.834 Y-87.583
G01 F600 X67.841 Y-87.653
G01 F600 X67.866 Y-87.728
G01 F600 X67.905 Y-87.796
G01 F600 X67.949 Y-87.845
G01 F600 X68.742 Y-88.637
G01 F600 X68.802 Y-88.681
G01 F600 X68.874 Y-88.713
G01 F600 X68.951 Y-88.729
G01 F600 X71.369 Y-88.729
G01 F600 X71.446 Y-88.713
G01 F600 X71.518 Y-88.681
G01 F600 X71.582 Y-88.634
G01 F600 X71.635 Y-88.576
G01 F600 X71.674 Y-88.508
G01 F600 X71.699 Y-88.433
G01 F600 X71.706 Y-88.363
G01 F600 X71.706 Y-83.666
G01 F600 X71.699 Y-83.597
G01 F600 X71.674 Y-83.522
G01 F600 X71.635 Y-83.454
G01 F600 X71.582 Y-83.395
G01 F600 X71.518 Y-83.349
G01 F600 X71.446 Y-83.317
G01 F600 X71.369 Y-83.300
G01 F600 X71.290 Y-83.300
G00 F3000 Z3.000
G00 F3000 X82.984 Y-83.300
G00 F1500 Z0
G01 F600 Z-0.200
G01 F600 X82.907 Y-83.317
G01 F600 X82.835 Y-83.349
G01 F600 X82.775 Y-83.392
G01 F600 X81.982 Y-84.185
G01 F600 X81.939 Y-84.234
G01 F600 X81.899 Y-84.302
G01 F600 X81.875 Y-84.377
G01 F600 X81.868 Y-84.446
G01 F600 X81.868 Y-87.583
G01 F600 X81.875 Y-87.653
G01 F600 X81.899 Y-87.728
G01 F600 X81.939 Y-87.796
G01 F600 X81.982 Y-87.845
G01 F600 X82.775 Y-88.637
G01 F600 X82.835 Y-88.681
G01 F600 X82.907 Y-88.713
G01 F600 X82.984 Y-88.729
G01 F600 X84.623 Y-88.729
G01 F600 X84.700 Y-88.713
G01 F600 X84.772 Y-88.681
G01 F600 X84.832 Y-88.637
G01 F600 X85.625 Y-87.845
G01 F600 X85.668 Y-87.796
G01 F600 X85.708 Y-87.728
G01 F600 X85.732 Y-87.653
G01 F600 X85.740 Y-87.574
G01 F600 X85.732 Y-87.496
G01 F600 X85.708 Y-87.421
G01 F600 X85.668 Y-87.353
G01 F600 X85.615 Y-87.294
G01 F600 X85.552 Y-87.248
G01 F600 X85.480 Y-87.216
G01 F600 X85.403 Y-87.199
G01 F600 X85.324 Y-87.199
G01 F600 X85.246 Y-87.216
G01 F600 X85.175 Y-87.248
G01 F600 X85.114 Y-87.291
G01 F600 X84.427 Y-87.979
G01 F600 X83.180 Y-87.979
G01 F600 X82.620 Y-87.419
G01 F600 X82.620 Y-84.611
G01 F600 X83.180 Y-84.050
G01 F600 X84.427 Y-84.050
G01 F600 X85.114 Y-84.738
G01 F600 X85.175 Y-84.782
G01 F600 X85.246 Y-84.814
G01 F600 X85.324 Y-84.830
G01 F600 X85.403 Y-84.830
G01 F600 X85.480 Y-84.814
G01 F600 X85.552 Y-84.782
G01 F600 X85.615 Y-84.736
G01 F600 X85.668 Y-84.677
G01 F600 X85.708 Y-84.609
G01 F600 X85.732 Y-84.534
G01 F600 X85.740 Y-84.455
G01 F600 X85.732 Y-84.377
G01 F600 X85.708 Y-84.302
G01 F600 X85.668 Y-84.234
G01 F600 X85.625 Y-84.185
G01 F600 X84.832 Y-83.392
G01 F600 X84.772 Y-83.349
G01 F600 X84.700 Y-83.317
G01 F600 X84.623 Y-83.300
G01 F600 X82.984 Y-83.300
G00 F3000 Z3.000
G00 F3000 X51.021 Y-83.300
G00 F1500 Z0
G01 F600 Z-0.200
G01 F600 X50.944 Y-83.317
G01 F600 X50.872 Y-83.349
G01 F600 X50.808 Y-83.395
G01 F600 X50.755 Y-83.454
G01 F600 X50.716 Y-83.522
G01 F600 X50.691 Y-83.597
G01 F600 X50.684 Y-83.666
G01 F600 X50.684 Y-88.363
G01 F600 X50.691 Y-88.433
G01 F600 X50.716 Y-88.508
G01 F600 X50.755 Y-88.576
G01 F600 X50.808 Y-88.634
G01 F600 X50.872 Y-88.681
G01 F600 X50.944 Y-88.713
G01 F600 X51.021 Y-88.729
G01 F600 X51.100 Y-88.729
G01 F600 X51.177 Y-88.713
G01 F600 X51.249 Y-88.681
G01 F600 X51.313 Y-88.634
G01 F600 X51.366 Y-88.576
G01 F600 X51.405 Y-88.508
G01 F600 X51.429 Y-88.433
G01 F600 X51.437 Y-88.363
G01 F600 X51.437 Y-87.170
G01 F600 X52.463 Y-87.170
G01 F600 X53.931 Y-88.637
G01 F600 X53.991 Y-88.681
G01 F600 X54.063 Y-88.713
G01 F600 X54.140 Y-88.729
G01 F600 X54.219 Y-88.729
G01 F600 X54.296 Y-88.713
G01 F600 X54.368 Y-88.681
G01 F600 X54.432 Y-88.634
G01 F600 X54.485 Y-88.576
G01 F600 X54.524 Y-88.508
G01 F600 X54.548 Y-88.433
G01 F600 X54.557 Y-88.354
G01 F600 X54.548 Y-88.276
G01 F600 X54.524 Y-88.201
G01 F600 X54.485 Y-88.132
G01 F600 X54.441 Y-88.084
G01 F600 X53.511 Y-87.154
G01 F600 X53.516 Y-87.153
G01 F600 X53.588 Y-87.121
G01 F600 X53.648 Y-87.078
G01 F600 X54.441 Y-86.285
G01 F600 X54.485 Y-86.236
G01 F600 X54.524 Y-86.168
G01 F600 X54.548 Y-86.093
G01 F600 X54.556 Y-86.024
G01 F600 X54.556 Y-84.446
G01 F600 X54.548 Y-84.377
G01 F600 X54.524 Y-84.302
G01 F600 X54.485 Y-84.234
G01 F600 X54.441 Y-84.185
G01 F600 X53.648 Y-83.392
G01 F600 X53.588 Y-83.349
G01 F600 X53.516 Y-83.317
G01 F600 X53.439 Y-83.300
G01 F600 X51.021 Y-83.300
G00 F3000 Z3.000
G00 F3000 X87.299 Y-84.050
G00 F1500 Z0
G01 F600 Z-0.200
G01 F600 X89.105 Y-84.050
G01 F600 X89.663 Y-84.610
G01 F600 X89.663 Y-85.080
G01 F600 X89.105 Y-85.640
G01 F600 X87.299 Y-85.640
G01 F600 X87.299 Y-84.050
G00 F3000 Z3.000
G00 F3000 X77.944 Y-84.050
G00 F1500 Z0
G01 F600 Z-0.200
G01 F600 X79.748 Y-84.050
G01 F600 X80.308 Y-84.611
G01 F600 X80.308 Y-85.859
G01 F600 X79.748 Y-86.419
G01 F600 X77.944 Y-86.419
G01 F600 X77.944 Y-84.050
G00 F3000 Z3.000
G00 F3000 X51.437 Y-84.050
G00 F1500 Z0
G01 F600 Z-0.200
G01 F600 X53.243 Y-84.050
G01 F600 X53.803 Y-84.611
G01 F600 X53.803 Y-85.859
G01 F600 X53.243 Y-86.419
G01 F600 X51.437 Y-86.419
G01 F600 X51.437 Y-84.050
G00 F3000 Z3.000
G00 F3000 X65.054 Y-84.860
G00 F1500 Z0
G01 F600 Z-0.200
G01 F600 X64.977 Y-84.876
G01 F600 X64.905 Y-84.908
G01 F600 X64.841 Y-84.955
G01 F600 X64.789 Y-85.013
G01 F600 X64.749 Y-85.082
G01 F600 X64.725 Y-85.157
G01 F600 X64.717 Y-85.235
G01 F600 X64.725 Y-85.313
G01 F600 X64.749 Y-85.388
G01 F600 X64.789 Y-85.457
G01 F600 X64.841 Y-85.515
G01 F600 X64.905 Y-85.562
G01 F600 X64.977 Y-85.594
G01 F600 X65.054 Y-85.610
G01 F600 X65.497 Y-85.610
G01 F600 X65.497 Y-87.979
G01 F600 X65.054 Y-87.979
G01 F600 X64.977 Y-87.995
G01 F600 X64.905 Y-88.028
G01 F600 X64.841 Y-88.074
G01 F600 X64.789 Y-88.132
G01 F600 X64.749 Y-88.201
G01 F600 X64.725 Y-88.276
G01 F600 X64.717 Y-88.354
G01 F600 X64.725 Y-88.433
G01 F600 X64.749 Y-88.508
G01 F600 X64.789 Y-88.576
G01 F600 X64.841 Y-88.634
G01 F600 X64.905 Y-88.681
G01 F600 X64.977 Y-88.713
G01 F600 X65.054 Y-88.729
G01 F600 X66.693 Y-88.729
G01 F600 X66.770 Y-88.713
G01 F600 X66.842 Y-88.681
G01 F600 X66.906 Y-88.634
G01 F600 X66.959 Y-88.576
G01 F600 X66.998 Y-88.508
G01 F600 X67.022 Y-88.433
G01 F600 X67.031 Y-88.354
G01 F600 X67.022 Y-88.276
G01 F600 X66.998 Y-88.201
G01 F600 X66.959 Y-88.132
G01 F600 X66.906 Y-88.074
G01 F600 X66.842 Y-88.028
G01 F600 X66.770 Y-87.995
G01 F600 X66.693 Y-87.979
G01 F600 X66.250 Y-87.979
G01 F600 X66.250 Y-85.226
G01 F600 X66.243 Y-85.157
G01 F600 X66.218 Y-85.082
G01 F600 X66.179 Y-85.013
G01 F600 X66.126 Y-84.955
G01 F600 X66.062 Y-84.908
G01 F600 X65.990 Y-84.876
G01 F600 X65.913 Y-84.860
G01 F600 X65.054 Y-84.860
G00 F3000 Z3.000
G00 F3000 X60.376 Y-84.860
G00 F1500 Z0
G01 F600 Z-0.200
G01 F600 X60.299 Y-84.876
G01 F600 X60.227 Y-84.908
G01 F600 X60.163 Y-84.955
G01 F600 X60.110 Y-85.013
G01 F600 X60.071 Y-85.082
G01 F600 X60.046 Y-85.157
G01 F600 X60.039 Y-85.226
G01 F600 X60.039 Y-89.923
G01 F600 X60.046 Y-89.992
G01 F600 X60.071 Y-90.067
G01 F600 X60.110 Y-90.135
G01 F600 X60.163 Y-90.194
G01 F600 X60.227 Y-90.240
G01 F600 X60.299 Y-90.272
G01 F600 X60.376 Y-90.289
G01 F600 X60.455 Y-90.289
G01 F600 X60.532 Y-90.272
G01 F600 X60.604 Y-90.240
G01 F600 X60.668 Y-90.194
G01 F600 X60.720 Y-90.135
G01 F600 X60.760 Y-90.067
G01 F600 X60.784 Y-89.992
G01 F600 X60.791 Y-89.923
G01 F600 X60.791 Y-88.729
G01 F600 X62.794 Y-88.729
G01 F600 X62.871 Y-88.713
G01 F600 X62.943 Y-88.681
G01 F600 X63.003 Y-88.637
G01 F600 X63.796 Y-87.845
G01 F600 X63.839 Y-87.796
G01 F600 X63.879 Y-87.728
G01 F600 X63.903 Y-87.653
G01 F600 X63.911 Y-87.583
G01 F600 X63.911 Y-86.006
G01 F600 X63.903 Y-85.936
G01 F600 X63.879 Y-85.861
G01 F600 X63.839 Y-85.793
G01 F600 X63.796 Y-85.745
G01 F600 X63.003 Y-84.952
G01 F600 X62.943 Y-84.908
G01 F600 X62.871 Y-84.876
G01 F600 X62.794 Y-84.860
G01 F600 X60.376 Y-84.860
G00 F3000 Z3.000
G00 F3000 X99.357 Y-84.860
G00 F1500 Z0
G01 F600 Z-0.200
G01 F600 X99.280 Y-84.876
G01 F600 X99.208 Y-84.908
G01 F600 X99.148 Y-84.952
G01 F600 X98.355 Y-85.745
G01 F600 X98.312 Y-85.793
G01 F600 X98.272 Y-85.861
G01 F600 X98.248 Y-85.936
G01 F600 X98.241 Y-86.006
G01 F600 X98.241 Y-87.583
G01 F600 X98.248 Y-87.653
G01 F600 X98.272 Y-87.728
G01 F600 X98.312 Y-87.796
G01 F600 X98.355 Y-87.845
G01 F600 X99.148 Y-88.637
G01 F600 X99.208 Y-88.681
G01 F600 X99.280 Y-88.713
G01 F600 X99.357 Y-88.729
G01 F600 X100.993 Y-88.729
G01 F600 X101.070 Y-88.713
G01 F600 X101.142 Y-88.681
G01 F600 X101.202 Y-88.637
G01 F600 X101.995 Y-87.845
G01 F600 X102.038 Y-87.796
G01 F600 X102.078 Y-87.728
G01 F600 X102.102 Y-87.653
G01 F600 X102.110 Y-87.583
G01 F600 X102.110 Y-86.006
G01 F600 X102.102 Y-85.936
G01 F600 X102.078 Y-85.861
G01 F600 X102.038 Y-85.793
G01 F600 X101.995 Y-85.745
G01 F600 X101.202 Y-84.952
G01 F600 X101.142 Y-84.908
G01 F600 X101.070 Y-84.876
G01 F600 X100.993 Y-84.860
G01 F600 X99.357 Y-84.860
G00 F3000 Z3.000
G00 F3000 X103.254 Y-84.860
G00 F1500 Z0
G01 F600 Z-0.200
G01 F600 X103.176 Y-84.876
G01 F600 X103.104 Y-84.908
G01 F600 X103.041 Y-84.955
G01 F600 X102.988 Y-85.013
G01 F600 X102.948 Y-85.082
G01 F600 X102.924 Y-85.157
G01 F600 X102.917 Y-85.226
G01 F600 X102.917 Y-88.363
G01 F600 X102.924 Y-88.433
G01 F600 X102.948 Y-88.508
G01 F600 X102.988 Y-88.576
G01 F600 X103.041 Y-88.634
G01 F600 X103.104 Y-88.681
G01 F600 X103.176 Y-88.713
G01 F600 X103.254 Y-88.729
G01 F600 X103.332 Y-88.729
G01 F600 X103.410 Y-88.713
G01 F600 X103.482 Y-88.681
G01 F600 X103.545 Y-88.634
G01 F600 X103.598 Y-88.576
G01 F600 X103.638 Y-88.508
G01 F600 X103.662 Y-88.433
G01 F600 X103.669 Y-88.363
G01 F600 X103.669 Y-85.610
G01 F600 X103.916 Y-85.610
G01 F600 X104.476 Y-86.170
G01 F600 X104.476 Y-88.363
G01 F600 X104.484 Y-88.433
G01 F600 X104.508 Y-88.508
G01 F600 X104.547 Y-88.576
G01 F600 X104.600 Y-88.634
G01 F600 X104.664 Y-88.681
G01 F600 X104.736 Y-88.713
G01 F600 X104.813 Y-88.729
G01 F600 X104.892 Y-88.729
G01 F600 X104.969 Y-88.713
G01 F600 X105.041 Y-88.681
G01 F600 X105.105 Y-88.634
G01 F600 X105.158 Y-88.576
G01 F600 X105.197 Y-88.508
G01 F600 X105.221 Y-88.433
G01 F600 X105.229 Y-88.363
G01 F600 X105.229 Y-86.170
G01 F600 X105.632 Y-85.767
G01 F600 X106.036 Y-86.170
G01 F600 X106.036 Y-88.363
G01 F600 X106.043 Y-88.433
G01 F600 X106.068 Y-88.508
G01 F600 X106.107 Y-88.576
G01 F600 X106.160 Y-88.634
G01 F600 X106.224 Y-88.681
G01 F600 X106.296 Y-88.713
G01 F600 X106.373 Y-88.729
G01 F600 X106.452 Y-88.729
G01 F600 X106.529 Y-88.713
G01 F600 X106.601 Y-88.681
G01 F600 X106.664 Y-88.634
G01 F600 X106.717 Y-88.576
G01 F600 X106.757 Y-88.508
G01 F600 X106.781 Y-88.433
G01 F600 X106.788 Y-88.363
G01 F600 X106.788 Y-86.006
G01 F600 X106.781 Y-85.936
G01 F600 X106.757 Y-85.861
G01 F600 X106.717 Y-85.793
G01 F600 X106.674 Y-85.745
G01 F600 X105.881 Y-84.952
G01 F600 X105.821 Y-84.908
G01 F600 X105.749 Y-84.876
G01 F600 X105.672 Y-84.860
G01 F600 X105.593 Y-84.860
G01 F600 X105.516 Y-84.876
G01 F600 X105.444 Y-84.908
G01 F600 X105.383 Y-84.952
G01 F600 X104.853 Y-85.483
G01 F600 X104.321 Y-84.952
G01 F600 X104.261 Y-84.908
G01 F600 X104.189 Y-84.876
G01 F600 X104.112 Y-84.860
G01 F600 X103.254 Y-84.860
G00 F3000 Z3.000
G00 F3000 X94.678 Y-84.860
G00 F1500 Z0
G01 F600 Z-0.200
G01 F600 X94.601 Y-84.876
G01 F600 X94.529 Y-84.908
G01 F600 X94.469 Y-84.952
G01 F600 X93.677 Y-85.745
G01 F600 X93.633 Y-85.793
G01 F600 X93.594 Y-85.861
G01 F600 X93.569 Y-85.936
G01 F600 X93.562 Y-86.006
G01 F600 X93.562 Y-87.583
G01 F600 X93.569 Y-87.653
G01 F600 X93.594 Y-87.728
G01 F600 X93.633 Y-87.796
G01 F600 X93.677 Y-87.845
G01 F600 X94.469 Y-88.637
G01 F600 X94.529 Y-88.681
G01 F600 X94.601 Y-88.713
G01 F600 X94.678 Y-88.729
G01 F600 X97.097 Y-88.729
G01 F600 X97.174 Y-88.713
G01 F600 X97.246 Y-88.681
G01 F600 X97.310 Y-88.634
G01 F600 X97.362 Y-88.576
G01 F600 X97.402 Y-88.508
G01 F600 X97.426 Y-88.433
G01 F600 X97.434 Y-88.354
G01 F600 X97.426 Y-88.276
G01 F600 X97.402 Y-88.201
G01 F600 X97.362 Y-88.132
G01 F600 X97.310 Y-88.074
G01 F600 X97.246 Y-88.028
G01 F600 X97.174 Y-87.995
G01 F600 X97.097 Y-87.979
G01 F600 X94.874 Y-87.979
G01 F600 X94.314 Y-87.419
G01 F600 X94.314 Y-86.170
G01 F600 X94.874 Y-85.610
G01 F600 X97.097 Y-85.610
G01 F600 X97.174 Y-85.594
G01 F600 X97.246 Y-85.562
G01 F600 X97.310 Y-85.515
G01 F600 X97.362 Y-85.457
G01 F600 X97.402 Y-85.388
G01 F600 X97.426 Y-85.313
G01 F600 X97.434 Y-85.235
G01 F600 X97.426 Y-85.157
G01 F600 X97.402 Y-85.082
G01 F600 X97.362 Y-85.013
G01 F600 X97.310 Y-84.955
G01 F600 X97.246 Y-84.908
G01 F600 X97.174 Y-84.876
G01 F600 X97.097 Y-84.860
G01 F600 X94.678 Y-84.860
G00 F3000 Z3.000
G00 F3000 X56.479 Y-84.860
G00 F1500 Z0
G01 F600 Z-0.200
G01 F600 X56.402 Y-84.876
G01 F600 X56.330 Y-84.908
G01 F600 X56.266 Y-84.955
G01 F600 X56.214 Y-85.013
G01 F600 X56.174 Y-85.082
G01 F600 X56.150 Y-85.157
G01 F600 X56.142 Y-85.235
G01 F600 X56.150 Y-85.313
G01 F600 X56.174 Y-85.388
G01 F600 X56.214 Y-85.457
G01 F600 X56.266 Y-85.515
G01 F600 X56.330 Y-85.562
G01 F600 X56.402 Y-85.594
G01 F600 X56.479 Y-85.610
G01 F600 X57.919 Y-85.610
G01 F600 X58.479 Y-86.170
G01 F600 X58.479 Y-86.419
G01 F600 X56.479 Y-86.419
G01 F600 X56.402 Y-86.436
G01 F600 X56.330 Y-86.468
G01 F600 X56.270 Y-86.512
G01 F600 X55.477 Y-87.304
G01 F600 X55.434 Y-87.353
G01 F600 X55.395 Y-87.421
G01 F600 X55.370 Y-87.496
G01 F600 X55.362 Y-87.574
G01 F600 X55.370 Y-87.653
G01 F600 X55.395 Y-87.728
G01 F600 X55.434 Y-87.796
G01 F600 X55.477 Y-87.845
G01 F600 X56.270 Y-88.637
G01 F600 X56.330 Y-88.681
G01 F600 X56.402 Y-88.713
G01 F600 X56.479 Y-88.729
G01 F600 X58.895 Y-88.729
G01 F600 X58.972 Y-88.713
G01 F600 X59.044 Y-88.681
G01 F600 X59.108 Y-88.634
G01 F600 X59.161 Y-88.576
G01 F600 X59.200 Y-88.508
G01 F600 X59.225 Y-88.433
G01 F600 X59.232 Y-88.363
G01 F600 X59.232 Y-86.006
G01 F600 X59.225 Y-85.936
G01 F600 X59.200 Y-85.861
G01 F600 X59.161 Y-85.793
G01 F600 X59.117 Y-85.745
G01 F600 X58.325 Y-84.952
G01 F600 X58.264 Y-84.908
G01 F600 X58.192 Y-84.876
G01 F600 X58.115 Y-84.860
G01 F600 X56.479 Y-84.860
G00 F3000 Z3.000
G00 F3000 X99.553 Y-85.610
G00 F1500 Z0
G01 F600 Z-0.200
G01 F600 X100.797 Y-85.610
G01 F600 X101.357 Y-86.170
G01 F600 X101.357 Y-87.419
G01 F600 X100.797 Y-87.979
G01 F600 X99.553 Y-87.979
G01 F600 X98.993 Y-87.419
G01 F600 X98.993 Y-86.170
G01 F600 X99.553 Y-85.610
G00 F3000 Z3.000
G00 F3000 X69.147 Y-85.610
G00 F1500 Z0
G01 F600 Z-0.200
G01 F600 X70.953 Y-85.610
G01 F600 X70.953 Y-87.979
G01 F600 X69.147 Y-87.979
G01 F600 X68.587 Y-87.419
G01 F600 X68.587 Y-86.170
G01 F600 X69.147 Y-85.610
G00 F3000 Z3.000
G00 F3000 X60.791 Y-85.610
G00 F1500 Z0
G01 F600 Z-0.200
G01 F600 X62.598 Y-85.610
G01 F600 X63.158 Y-86.170
G01 F600 X63.158 Y-87.419
G01 F600 X62.598 Y-87.979
G01 F600 X60.791 Y-87.979
G01 F600 X60.791 Y-85.610
G00 F3000 Z3.000
G00 F3000 X72.850 Y-85.640
G00 F1500 Z0
G01 F600 Z-0.200
G01 F600 X72.773 Y-85.656
G01 F600 X72.701 Y-85.688
G01 F600 X72.637 Y-85.734
G01 F600 X72.584 Y-85.793
G01 F600 X72.545 Y-85.861
G01 F600 X72.520 Y-85.936
G01 F600 X72.512 Y-86.015
G01 F600 X72.520 Y-86.093
G01 F600 X72.545 Y-86.168
G01 F600 X72.584 Y-86.236
G01 F600 X72.637 Y-86.295
G01 F600 X72.701 Y-86.341
G01 F600 X72.773 Y-86.374
G01 F600 X72.850 Y-86.390
G01 F600 X76.048 Y-86.390
G01 F600 X76.125 Y-86.374
G01 F600 X76.197 Y-86.341
G01 F600 X76.261 Y-86.295
G01 F600 X76.313 Y-86.236
G01 F600 X76.353 Y-86.168
G01 F600 X76.377 Y-86.093
G01 F600 X76.385 Y-86.015
G01 F600 X76.377 Y-85.936
G01 F600 X76.353 Y-85.861
G01 F600 X76.313 Y-85.793
G01 F600 X76.261 Y-85.734
G01 F600 X76.197 Y-85.688
G01 F600 X76.125 Y-85.656
G01 F600 X76.048 Y-85.640
G01 F600 X72.850 Y-85.640
G00 F3000 Z3.000
G00 F3000 X87.299 Y-86.390
G00 F1500 Z0
G01 F600 Z-0.200
G01 F600 X89.105 Y-86.390
G01 F600 X89.663 Y-86.950
G01 F600 X89.663 Y-87.419
G01 F600 X89.105 Y-87.979
G01 F600 X87.299 Y-87.979
G01 F600 X87.299 Y-86.390
G00 F3000 Z3.000
G00 F3000 X56.675 Y-87.170
G00 F1500 Z0
G01 F600 Z-0.200
G01 F600 X58.479 Y-87.170
G01 F600 X58.479 Y-87.979
G01 F600 X56.675 Y-87.979
G01 F600 X56.271 Y-87.574
G01 F600 X56.675 Y-87.170
G00 F3000 Z3.000
G00 F3000 X91.559 Y-87.199
G00 F1500 Z0
G01 F600 Z-0.200
G01 F600 X91.482 Y-87.216
G01 F600 X91.410 Y-87.248
G01 F600 X91.346 Y-87.294
G01 F600 X91.294 Y-87.353
G01 F600 X91.254 Y-87.421
G01 F600 X91.230 Y-87.496
G01 F600 X91.223 Y-87.565
G01 F600 X91.223 Y-88.363
G01 F600 X91.230 Y-88.433
G01 F600 X91.254 Y-88.508
G01 F600 X91.294 Y-88.576
G01 F600 X91.346 Y-88.634
G01 F600 X91.410 Y-88.681
G01 F600 X91.482 Y-88.713
G01 F600 X91.559 Y-88.729
G01 F600 X92.418 Y-88.729
G01 F600 X92.495 Y-88.713
G01 F600 X92.567 Y-88.681
G01 F600 X92.631 Y-88.634
G01 F600 X92.684 Y-88.576
G01 F600 X92.723 Y-88.508
G01 F600 X92.747 Y-88.433
G01 F600 X92.755 Y-88.363
G01 F600 X92.755 Y-87.565
G01 F600 X92.747 Y-87.496
G01 F600 X92.723 Y-87.421
G01 F600 X92.684 Y-87.353
G01 F600 X92.631 Y-87.294
G01 F600 X92.567 Y-87.248
G01 F600 X92.495 Y-87.216
G01 F600 X92.418 Y-87.199
G01 F600 X91.559 Y-87.199
G00 F3000 Z3.000
G00 F3000 X91.975 Y-87.949
G00 F1500 Z0
G01 F600 Z-0.200
G01 F600 X92.002 Y-87.949
G01 F600 X92.002 Y-87.979
G01 F600 X91.975 Y-87.979
G01 F600 X91.975 Y-87.949
G00 F3000 Z3.000
G00 F3000 Z3.000
G00 F3000 X0.000 Y0.000
M05
M30
%